; generated by PrusaSlicer 2.3.1+win64 on 2021-07-15 at 04:45:16 UTC

; 

; external perimeters extrusion width = 0.45mm
; perimeters extrusion width = 0.45mm
; infill extrusion width = 0.45mm
; solid infill extrusion width = 0.45mm
; top infill extrusion width = 0.40mm
; first layer extrusion width = 0.42mm

M73 P0 R181
M73 Q0 S184
M201 X1000 Y1000 Z200 E5000 ; sets maximum accelerations, mm/sec^2
M203 X200 Y200 Z12 E120 ; sets maximum feedrates, mm/sec
M204 P1250 R1250 T1250 ; sets acceleration (P, T) and retract acceleration (R), mm/sec^2
M205 X8.00 Y8.00 Z0.40 E4.50 ; sets the jerk limits, mm/sec
M205 S0 T0 ; sets the minimum extruding and travel feed rate, mm/sec
M107
;TYPE:Custom
M862.3 P "MK3S" ; printer model check
M862.1 P0.4 ; nozzle diameter check
M115 U3.9.3 ; tell printer latest fw version
G90 ; use absolute coordinates
M83 ; extruder relative mode
M104 S230 ; set extruder temp
M140 S85 ; set bed temp
M190 S85 ; wait for bed temp
M109 S230 ; wait for extruder temp
G28 W ; home all without mesh bed level
G80 ; mesh bed leveling
G1 Y-3.0 F1000.0 ; go outside print area
G92 E0.0
G1 X60.0 E9.0 F1000.0 ; intro line
G1 X100.0 E12.5 F1000.0 ; intro line
G92 E0.0
M221 S95

; Don't change E values below. Excessive value can damage the printer.

M907 E538 ; set extruder motor current
G21 ; set units to millimeters
G90 ; use absolute coordinates
M83 ; use relative distances for extrusion
M900 K0.08 ; Filament gcode LA 1.5
M900 K45 ; Filament gcode LA 1.0
;LAYER_CHANGE
;Z:0.2
;HEIGHT:0.2
;BEFORE_LAYER_CHANGE
G92 E0.0
;0.2


G1 E-1.40000 F2100.000
G1 Z0.200 F10800.000
;AFTER_LAYER_CHANGE
;0.2
G1 Z0.400
G1 X85.006 Y53.104
G1 Z0.200
G1 E1.40000 F2100.000
M204 S1000
;TYPE:Skirt
;WIDTH:0.42
G1 F1200.000
G1 X86.040 Y52.731 E0.03447
G1 X86.948 Y52.623 E0.02868
G1 X163.004 Y52.623 E2.38468
G1 X163.855 Y52.707 E0.02683
G1 X164.669 Y52.954 E0.02666
G1 X165.427 Y53.357 E0.02691
G1 X166.080 Y53.890 E0.02642
G1 X166.632 Y54.557 E0.02714
G1 X167.034 Y55.302 E0.02655
G1 X167.287 Y56.118 E0.02678
G1 X167.376 Y56.921 E0.02535
G1 X167.377 Y153.023 E3.01320
G1 X167.308 Y153.773 E0.02361
G1 X167.157 Y154.366 E0.01919
G1 X166.860 Y155.065 E0.02381
G1 X166.439 Y155.706 E0.02405
G1 X165.779 Y156.382 E0.02963
G1 X164.988 Y156.899 E0.02963
G1 X163.953 Y157.271 E0.03447
G1 X163.022 Y157.377 E0.02940
G1 X86.973 Y157.377 E2.38444
G1 X86.223 Y157.307 E0.02361
G1 X85.634 Y157.157 E0.01907
G1 X84.935 Y156.860 E0.02381
G1 X84.294 Y156.439 E0.02405
G1 X83.618 Y155.779 E0.02963
G1 X83.101 Y154.988 E0.02964
G1 X82.729 Y153.953 E0.03447
G1 X82.623 Y153.024 E0.02933
G1 X82.623 Y56.977 E3.01147
G1 X82.692 Y56.227 E0.02361
G1 X82.843 Y55.634 E0.01919
G1 X83.140 Y54.935 E0.02381
G1 X83.561 Y54.294 E0.02405
G1 X84.221 Y53.618 E0.02964
G1 X84.955 Y53.137 E0.02751
; printing object lid.stl id:0 copy 0
;WIPE_START
G1 F8640.000
G1 X86.040 Y52.731 E-0.26735
G1 X86.948 Y52.623 E-0.21124
G1 X90.635 Y52.623 E-0.85141
;WIPE_END
G1 E-0.07000 F2100.000
G1 Z0.400 F10800.000
G1 X157.729 Y144.044
G1 Z0.200
G1 E1.40000 F2100.000
;TYPE:External perimeter
G1 F1200.000
G1 X162.648 Y145.362 E0.15966
G1 X163.966 Y150.281 E0.15966
M73 Q0 S183
G1 X160.365 Y153.881 E0.15966
G1 X155.447 Y152.563 E0.15966
G1 X154.129 Y147.645 E0.15966
G1 X157.687 Y144.086 E0.15778
G1 X157.833 Y143.658 F10800.000
;WIPE_START
G1 F8640.000
G1 X162.648 Y145.362 E-1.18280
G1 X162.813 Y145.978 E-0.14720
;WIPE_END
G1 E-0.07000 F2100.000
G1 Z0.400 F10800.000
G1 X164.190 Y150.590
G1 Z0.200
G1 E1.40000 F2100.000
;TYPE:Perimeter
G1 F1200.000
G1 X164.213 Y150.567 E0.00100
G1 X164.207 Y153.104 E0.07955
G1 X164.158 Y153.351 E0.00789
G1 X164.067 Y153.570 E0.00744
G1 X163.935 Y153.768 E0.00744
G1 X163.768 Y153.935 E0.00744
G1 X163.558 Y154.075 E0.00789
G1 X163.236 Y154.187 E0.01068
G1 X162.966 Y154.213 E0.00850
G1 X160.567 Y154.213 E0.07523
G1 X164.148 Y150.632 E0.15878
;WIPE_START
G1 F8640.000
G1 X164.213 Y150.567 E-0.02124
G1 X164.207 Y153.104 E-0.58586
G1 X164.158 Y153.351 E-0.05812
G1 X164.067 Y153.570 E-0.05477
G1 X163.935 Y153.768 E-0.05476
G1 X163.768 Y153.935 E-0.05476
G1 X163.558 Y154.075 E-0.05812
G1 X163.236 Y154.187 E-0.07868
G1 X162.966 Y154.213 E-0.06259
G1 X161.662 Y154.213 E-0.30111
;WIPE_END
G1 E-0.07000 F2100.000
G1 Z0.400 F10800.000
G1 X95.937 Y150.316
G1 Z0.200
G1 E1.40000 F2100.000
;TYPE:External perimeter
G1 F1200.000
G1 X92.336 Y153.917 E0.15966
G1 X87.418 Y152.599 E0.15966
G1 X86.100 Y147.680 E0.15966
G1 X89.701 Y144.079 E0.15966
G1 X94.619 Y145.397 E0.15966
G1 X95.922 Y150.258 E0.15778
G1 X96.220 Y150.599 F10800.000
;WIPE_START
G1 F8640.000
G1 X92.336 Y153.917 E-1.18280
G1 X91.721 Y153.752 E-0.14720
;WIPE_END
G1 E-0.07000 F2100.000
G1 Z0.400 F10800.000
G1 X91.985 Y154.213
G1 Z0.200
G1 E1.40000 F2100.000
;TYPE:Perimeter
G1 F1200.000
G1 X86.896 Y154.207 E0.15958
G1 X86.649 Y154.158 E0.00789
G1 X86.430 Y154.067 E0.00744
G1 X86.232 Y153.935 E0.00744
G1 X86.065 Y153.768 E0.00744
G1 X85.886 Y153.477 E0.01069
G1 X85.813 Y153.236 E0.00789
G1 X85.787 Y152.966 E0.00850
G1 X85.787 Y147.970 E0.15667
G1 X87.110 Y152.907 E0.16026
G1 X91.927 Y154.197 E0.15638
;WIPE_START
G1 F8640.000
G1 X86.896 Y154.207 E-1.16184
G1 X86.649 Y154.158 E-0.05812
G1 X86.430 Y154.067 E-0.05476
G1 X86.232 Y153.935 E-0.05476
G1 X86.231 Y153.934 E-0.00052
;WIPE_END
G1 E-0.07000 F2100.000
G1 Z0.400 F10800.000
G1 X92.302 Y65.902
G1 Z0.200
G1 E1.40000 F2100.000
;TYPE:External perimeter
G1 F1200.000
G1 X87.384 Y64.584 E0.15966
G1 X86.066 Y59.665 E0.15966
G1 X89.667 Y56.064 E0.15966
G1 X94.585 Y57.382 E0.15966
G1 X95.903 Y62.301 E0.15966
G1 X92.345 Y65.859 E0.15778
G1 X92.199 Y66.288 F10800.000
;WIPE_START
G1 F8640.000
G1 X87.384 Y64.584 E-1.18280
G1 X87.219 Y63.968 E-0.14720
;WIPE_END
G1 E-0.07000 F2100.000
G1 Z0.400 F10800.000
G1 X85.842 Y59.356
G1 Z0.200
G1 E1.40000 F2100.000
;TYPE:Perimeter
G1 F1200.000
G1 X85.787 Y59.410 E0.00242
G1 X85.793 Y56.896 E0.07885
G1 X85.842 Y56.649 E0.00789
G1 X85.933 Y56.430 E0.00744
G1 X86.065 Y56.232 E0.00744
G1 X86.315 Y56.001 E0.01069
G1 X86.537 Y55.882 E0.00789
G1 X86.764 Y55.813 E0.00743
G1 X87.033 Y55.787 E0.00850
G1 X89.410 Y55.787 E0.07452
G1 X85.884 Y59.313 E0.15635
;WIPE_START
G1 F8640.000
G1 X85.787 Y59.410 E-0.03166
G1 X85.793 Y56.896 E-0.58067
G1 X85.842 Y56.649 E-0.05812
G1 X85.933 Y56.430 E-0.05476
G1 X86.065 Y56.232 E-0.05476
G1 X86.315 Y56.001 E-0.07874
G1 X86.537 Y55.882 E-0.05811
G1 X86.764 Y55.813 E-0.05472
G1 X87.033 Y55.787 E-0.06258
G1 X88.315 Y55.787 E-0.29589
;WIPE_END
G1 E-0.07000 F2100.000
G1 Z0.400 F10800.000
G1 X154.112 Y59.674
G1 Z0.200
G1 E1.40000 F2100.000
;TYPE:External perimeter
G1 F1200.000
G1 X157.716 Y56.070 E0.15980
G1 X162.635 Y57.388 E0.15966
G1 X163.953 Y62.307 E0.15966
G1 X160.352 Y65.908 E0.15966
G1 X155.434 Y64.590 E0.15964
G1 X154.128 Y59.732 E0.15772
G1 X153.829 Y59.391 F10800.000
;WIPE_START
G1 F8640.000
G1 X157.716 Y56.070 E-1.18382
G1 X158.328 Y56.234 E-0.14618
;WIPE_END
G1 E-0.07000 F2100.000
G1 Z0.400 F10800.000
G1 X133.787 Y104.213
G1 Z0.200
G1 E1.40000 F2100.000
;TYPE:Perimeter
G1 F1200.000
G1 X133.787 Y110.787 E0.20613
G1 X117.213 Y110.787 E0.51967
G1 X117.213 Y104.213 E0.20613
G1 X133.727 Y104.213 E0.51779
G1 X133.410 Y104.590 F10800.000
;TYPE:External perimeter
G1 F1200.000
G1 X133.410 Y110.410 E0.18248
G1 X117.590 Y110.410 E0.49602
G1 X117.590 Y104.590 E0.18248
G1 X133.350 Y104.590 E0.49414
G1 X133.807 Y104.543 F10800.000
;WIPE_START
G1 F8640.000
G1 X133.409 Y110.350 E-1.33000
;WIPE_END
G1 E-0.07000 F2100.000
G1 Z0.400 F10800.000
G1 X153.691 Y59.561
G1 Z0.200
G1 E1.40000 F2100.000
;TYPE:Perimeter
G1 F1200.000
G1 X155.126 Y64.898 E0.17326
G1 X160.465 Y66.328 E0.17328
G1 X164.213 Y62.580 E0.16620
G1 X164.213 Y149.745 E2.73300
G1 X162.956 Y145.054 E0.15227
G1 X157.617 Y143.623 E0.17332
G1 X153.708 Y147.532 E0.17332
G1 X155.139 Y152.871 E0.17332
G1 X160.146 Y154.213 E0.16253
G1 X92.573 Y154.213 E2.11868
G1 X96.358 Y150.429 E0.16780
G1 X94.927 Y145.089 E0.17332
G1 X89.588 Y143.659 E0.17332
G1 X85.787 Y147.459 E0.16854
G1 X85.787 Y60.082 E2.73967
M73 P0 R180
G1 X87.076 Y64.892 E0.15613
G1 X92.415 Y66.322 E0.17332
G1 X96.324 Y62.414 E0.17332
G1 X94.893 Y57.074 E0.17332
G1 X90.091 Y55.787 E0.15589
G1 X157.458 Y55.795 E2.11225
G1 X153.734 Y59.519 E0.16512
;WIPE_START
G1 F8640.000
G1 X155.126 Y64.898 E-1.28290
G1 X155.323 Y64.951 E-0.04710
;WIPE_END
G1 E-0.07000 F2100.000
G1 Z0.400 F10800.000
G1 X158.148 Y55.795
G1 Z0.200
G1 E1.40000 F2100.000
G1 F1200.000
G1 X163.119 Y55.796 E0.15586
G1 X163.351 Y55.842 E0.00744
G1 X163.570 Y55.933 E0.00744
G1 X163.768 Y56.065 E0.00744
G1 X163.935 Y56.232 E0.00744
G1 X164.067 Y56.430 E0.00744
G1 X164.158 Y56.649 E0.00744
G1 X164.207 Y56.896 E0.00789
G1 X164.213 Y61.821 E0.15443
G1 X162.943 Y57.080 E0.15389
G1 X158.206 Y55.811 E0.15377
;WIPE_START
G1 F8640.000
G1 X163.119 Y55.796 E-1.13442
G1 X163.351 Y55.842 E-0.05477
G1 X163.570 Y55.933 E-0.05476
G1 X163.768 Y56.065 E-0.05476
G1 X163.863 Y56.161 E-0.03128
;WIPE_END
G1 E-0.07000 F2100.000
G1 Z0.400 F10800.000
G1 X163.156 Y55.419
G1 Z0.200
G1 E1.40000 F2100.000
;TYPE:External perimeter
G1 F1200.000
G1 X163.461 Y55.480 E0.00977
G1 X163.749 Y55.599 E0.00977
G1 X164.008 Y55.772 E0.00977
G1 X164.228 Y55.992 E0.00977
G1 X164.401 Y56.251 E0.00976
G1 X164.520 Y56.539 E0.00977
G1 X164.582 Y56.849 E0.00993
G1 X164.590 Y57.010 E0.00504
G1 X164.590 Y152.990 E3.00938
G1 X164.582 Y153.151 E0.00504
G1 X164.520 Y153.461 E0.00993
G1 X164.401 Y153.749 E0.00977
G1 X164.228 Y154.008 E0.00976
G1 X164.008 Y154.228 E0.00977
G1 X163.745 Y154.404 E0.00993
G1 X163.613 Y154.466 E0.00457
G1 X163.310 Y154.558 E0.00993
G1 X162.985 Y154.590 E0.01024
G1 X87.010 Y154.590 E2.38214
G1 X86.849 Y154.582 E0.00504
G1 X86.539 Y154.520 E0.00993
G1 X86.251 Y154.401 E0.00977
G1 X85.992 Y154.228 E0.00977
G1 X85.772 Y154.008 E0.00977
G1 X85.596 Y153.745 E0.00993
G1 X85.534 Y153.613 E0.00457
G1 X85.442 Y153.310 E0.00993
G1 X85.410 Y152.985 E0.01024
G1 X85.410 Y57.010 E3.00922
G1 X85.418 Y56.849 E0.00504
G1 X85.480 Y56.539 E0.00993
G1 X85.599 Y56.251 E0.00977
G1 X85.772 Y55.992 E0.00977
G1 X85.996 Y55.768 E0.00993
G1 X86.113 Y55.681 E0.00457
G1 X86.392 Y55.532 E0.00993
G1 X86.690 Y55.442 E0.00976
G1 X87.015 Y55.410 E0.01024
G1 X163.096 Y55.419 E2.38546
G1 X163.275 Y55.707 F10800.000
;WIPE_START
G1 F8640.000
G1 X163.461 Y55.480 E-0.08555
G1 X163.749 Y55.599 E-0.07191
G1 X164.008 Y55.772 E-0.07191
G1 X164.228 Y55.992 E-0.07191
G1 X164.401 Y56.251 E-0.07191
G1 X164.520 Y56.539 E-0.07192
G1 X164.582 Y56.849 E-0.07311
G1 X164.590 Y57.010 E-0.03715
G1 X164.590 Y60.365 E-0.77462
;WIPE_END
G1 E-0.07000 F2100.000
G1 Z0.400 F10800.000
G1 X164.076 Y56.818
G1 Z0.200
G1 E1.40000 F2100.000
;TYPE:Solid infill
;WIDTH:0.483661
M73 Q0 S182
G1 F1200.000
G1 X163.436 Y56.184 E0.03303
G1 X163.269 Y56.114 E0.00665
G1 X163.091 Y56.079 E0.00665
G1 X162.713 Y56.079 E0.01384
G1 X163.925 Y57.290 E0.06278
G1 X163.925 Y57.914 E0.02287
G1 X163.288 Y57.277 E0.03302
G1 X163.174 Y56.849 E0.01623
G1 X162.746 Y56.735 E0.01623
G1 X162.090 Y56.079 E0.03400
G1 X161.466 Y56.079 E0.02285
G1 X162.134 Y56.747 E0.03462
;WIPE_START
G1 F8640.000
G1 X161.466 Y56.079 E-0.21812
G1 X162.090 Y56.079 E-0.14394
G1 X162.746 Y56.735 E-0.21424
G1 X163.174 Y56.849 E-0.10224
G1 X163.288 Y57.277 E-0.10224
G1 X163.925 Y57.914 E-0.20806
G1 X163.925 Y57.290 E-0.14410
G1 X163.321 Y56.687 E-0.19705
;WIPE_END
G1 E-0.07000 F2100.000
G1 Z0.400 F10800.000
G1 X163.276 Y57.888
G1 Z0.200
G1 E1.40000 F2100.000
G1 F1200.000
G1 X164.096 Y58.708 E0.04248
G1 X163.861 Y59.144 F10800.000
;TYPE:Gap fill
;WIDTH:0.332924
G1 F1200.000
G1 X163.889 Y59.359 E0.00525
;WIDTH:0.237082
G1 X163.946 Y59.791 E0.00703
;WIDTH:0.14124
G1 X164.003 Y60.222 E0.00356
;WIPE_START
G1 F8640.000
G1 X163.946 Y59.791 E-0.10049
;WIPE_END
G1 E-1.29951 F2100.000
G1 Z0.400 F10800.000
G1 X164.100 Y63.559
G1 Z0.200
G1 E1.40000 F2100.000
;TYPE:Solid infill
;WIDTH:0.4201
G1 F1200.000
G1 X163.867 Y63.326 E0.01035
G1 X163.600 Y63.593 E0.01183
G1 X163.930 Y63.923 E0.01465
G1 X163.930 Y64.457 E0.01673
G1 X163.333 Y63.860 E0.02648
G1 X163.066 Y64.126 E0.01183
G1 X163.930 Y64.990 E0.03831
G1 X163.930 Y65.523 E0.01673
G1 X162.800 Y64.393 E0.05014
G1 X162.533 Y64.660 E0.01183
G1 X163.930 Y66.057 E0.06197
G1 X163.930 Y66.590 E0.01673
G1 X162.266 Y64.926 E0.07380
G1 X162.000 Y65.193 E0.01183
G1 X163.930 Y67.124 E0.08563
G1 X163.930 Y67.657 E0.01673
G1 X161.733 Y65.460 E0.09746
G1 X161.466 Y65.727 E0.01183
G1 X163.930 Y68.190 E0.10928
G1 X163.930 Y68.724 E0.01673
G1 X161.200 Y65.993 E0.12111
G1 X160.933 Y66.260 E0.01183
G1 X163.930 Y69.257 E0.13294
G1 X163.930 Y69.791 E0.01673
G1 X160.666 Y66.527 E0.14477
G1 X160.549 Y66.644 E0.00518
G1 X160.140 Y66.534 E0.01329
G1 X163.930 Y70.324 E0.16811
G1 X163.930 Y70.858 E0.01673
G1 X159.411 Y66.339 E0.20043
G1 X158.683 Y66.143 E0.02366
G1 X163.930 Y71.391 E0.23275
G1 X163.930 Y71.924 E0.01673
G1 X157.954 Y65.948 E0.26507
G1 X157.225 Y65.753 E0.02366
G1 X163.930 Y72.458 E0.29739
G1 X163.930 Y72.991 E0.01673
G1 X156.497 Y65.558 E0.32971
G1 X155.768 Y65.362 E0.02366
G1 X164.100 Y73.694 E0.36955
;WIPE_START
G1 F8640.000
G1 X160.027 Y69.621 E-1.33000
;WIPE_END
G1 E-0.07000 F2100.000
G1 Z0.400 F10800.000
G1 X156.449 Y55.908
G1 Z0.200
G1 E1.40000 F2100.000
G1 F1200.000
G1 X156.697 Y56.156 E0.01100
G1 X156.430 Y56.423 E0.01183
G1 X156.085 Y56.078 E0.01531
G1 X155.551 Y56.078 E0.01673
G1 X156.163 Y56.690 E0.02714
G1 X155.897 Y56.956 E0.01183
G1 X155.018 Y56.078 E0.03897
G1 X154.484 Y56.078 E0.01673
G1 X155.630 Y57.223 E0.05080
G1 X155.363 Y57.490 E0.01183
G1 X153.951 Y56.078 E0.06263
G1 X153.418 Y56.078 E0.01673
G1 X155.096 Y57.757 E0.07447
G1 X154.830 Y58.023 E0.01183
G1 X152.884 Y56.078 E0.08630
G1 X152.351 Y56.077 E0.01673
G1 X154.563 Y58.290 E0.09813
G1 X154.296 Y58.557 E0.01183
G1 X151.817 Y56.077 E0.10996
G1 X151.284 Y56.077 E0.01673
G1 X154.030 Y58.823 E0.12180
G1 X153.763 Y59.090 E0.01183
G1 X150.750 Y56.077 E0.13363
G1 X150.217 Y56.077 E0.01673
G1 X153.496 Y59.357 E0.14546
G1 X153.376 Y59.477 E0.00534
G1 X153.484 Y59.878 E0.01301
G1 X149.683 Y56.077 E0.16856
G1 X149.150 Y56.077 E0.01673
G1 X153.680 Y60.607 E0.20093
G1 X153.876 Y61.337 E0.02370
G1 X148.616 Y56.077 E0.23329
G1 X148.083 Y56.077 E0.01673
G1 X154.072 Y62.066 E0.26565
G1 X154.268 Y62.796 E0.02370
G1 X147.549 Y56.077 E0.29802
G1 X147.016 Y56.077 E0.01673
G1 X154.465 Y63.526 E0.33038
G1 X154.661 Y64.255 E0.02370
G1 X146.482 Y56.077 E0.36274
G1 X145.949 Y56.077 E0.01673
G1 X163.930 Y74.058 E0.79753
G1 X163.930 Y74.591 E0.01673
G1 X145.415 Y56.077 E0.82119
G1 X144.882 Y56.077 E0.01673
G1 X163.930 Y75.125 E0.84486
G1 X163.930 Y75.658 E0.01673
G1 X144.348 Y56.077 E0.86852
G1 X143.815 Y56.076 E0.01673
G1 X163.930 Y76.192 E0.89218
G1 X163.930 Y76.725 E0.01673
G1 X143.281 Y56.076 E0.91584
G1 X142.748 Y56.076 E0.01673
G1 X163.930 Y77.259 E0.93950
G1 X163.930 Y77.792 E0.01673
G1 X142.215 Y56.076 E0.96316
M73 P1 R180
M73 Q1 S182
G1 X141.681 Y56.076 E0.01673
G1 X163.930 Y78.325 E0.98683
G1 X163.930 Y78.859 E0.01673
G1 X141.148 Y56.076 E1.01049
G1 X140.614 Y56.076 E0.01673
G1 X163.930 Y79.392 E1.03415
G1 X163.930 Y79.926 E0.01673
G1 X140.081 Y56.076 E1.05781
G1 X139.547 Y56.076 E0.01673
G1 X163.930 Y80.459 E1.08147
M73 P1 R179
G1 X163.930 Y80.992 E0.01673
G1 X139.014 Y56.076 E1.10513
G1 X138.480 Y56.076 E0.01673
G1 X163.930 Y81.526 E1.12879
G1 X163.930 Y82.059 E0.01673
G1 X137.947 Y56.076 E1.15246
G1 X137.413 Y56.076 E0.01673
G1 X163.930 Y82.593 E1.17612
G1 X163.930 Y83.126 E0.01673
G1 X136.880 Y56.076 E1.19978
G1 X136.346 Y56.076 E0.01673
G1 X163.930 Y83.659 E1.22344
G1 X163.930 Y84.193 E0.01673
G1 X135.813 Y56.076 E1.24710
G1 X135.279 Y56.075 E0.01673
G1 X163.930 Y84.726 E1.27076
G1 X163.930 Y85.260 E0.01673
G1 X134.746 Y56.075 E1.29442
G1 X134.212 Y56.075 E0.01673
G1 X163.930 Y85.793 E1.31809
G1 X163.930 Y86.327 E0.01673
G1 X133.679 Y56.075 E1.34175
G1 X133.145 Y56.075 E0.01673
G1 X163.930 Y86.860 E1.36541
G1 X163.930 Y87.393 E0.01673
G1 X132.612 Y56.075 E1.38907
G1 X132.078 Y56.075 E0.01673
G1 X163.930 Y87.927 E1.41273
M73 Q1 S181
G1 X163.930 Y88.460 E0.01673
G1 X131.545 Y56.075 E1.43639
G1 X131.012 Y56.075 E0.01673
