; generated by PrusaSlicer 2.4.1+win64 on 2022-03-29 at 19:02:37 UTC

; 

; external perimeters extrusion width = 0.45mm
; perimeters extrusion width = 0.45mm
; infill extrusion width = 0.45mm
; solid infill extrusion width = 0.45mm
; top infill extrusion width = 0.40mm
; support material extrusion width = 0.35mm
; first layer extrusion width = 0.42mm

M73 P0 R121
M73 Q0 S121
M107
;TYPE:Custom
M862.3 P "MK3S" ; printer model check
M862.1 P0.4 ; nozzle diameter check
M115 U3.10.0 ; tell printer latest fw version
G90 ; use absolute coordinates
M83 ; extruder relative mode
M104 S230 ; set extruder temp
M140 S85 ; set bed temp
M190 S85 ; wait for bed temp
M109 S230 ; wait for extruder temp
G28 W ; home all without mesh bed level
G80 ; mesh bed leveling
G1 Y-3.0 F1000.0 ; go outside print area
G92 E0.0
G1 X60.0 E9.0 F1000.0 ; intro line
G1 X100.0 E12.5 F1000.0 ; intro line
G92 E0.0
M221 S95

; Don't change E values below. Excessive value can damage the printer.
M907 E430 ; set extruder motor current
G21 ; set units to millimeters
G90 ; use absolute coordinates
M83 ; use relative distances for extrusion
M900 K0.08 ; Filament gcode LA 1.5
M900 K45 ; Filament gcode LA 1.0
M107
;LAYER_CHANGE
;Z:0.2
;HEIGHT:0.2
;BEFORE_LAYER_CHANGE
G92 E0.0
;0.2


G1 E-1 F2100
G1 Z.2 F10800
;AFTER_LAYER_CHANGE
;0.2
G1 Z.4
G1 X5.985 Y1.793
G1 Z.2
G1 E1 F2100
M204 S1000
;TYPE:Skirt/Brim
;WIDTH:0.42
G1 F1200
G1 X6.015 Y1.693 E.00327
G1 X7.06 Y.817 E.04278
G1 X8 Y.623 E.03008
G1 X242 Y.623 E7.33691
G1 X243.307 Y1.015 E.04278
G1 X244.183 Y2.06 E.04278
G1 X244.377 Y3 E.03008
G1 X244.377 Y207 E6.39628
G1 X243.985 Y208.307 E.04278
G1 X242.94 Y209.183 E.04278
G1 X242 Y209.377 E.03008
M73 P0 R120
G1 X8 Y209.377 E7.33691
G1 X6.693 Y208.985 E.04278
G1 X5.817 Y207.94 E.04278
G1 X5.623 Y207 E.03008
G1 X5.623 Y3 E6.39628
G1 X5.967 Y1.85 E.03763
; printing object Solar Brace.stl id:0 copy 17
;WIPE_START
G1 F8640
G1 X6.015 Y1.693 E-.03796
G1 X7.06 Y.817 E-.31505
G1 X8 Y.623 E-.22155
G1 X9.626 Y.623 E-.37544
;WIPE_END
G1 E-.05 F2100
G1 Z.4 F10800
G1 X8.41 Y143.41
G1 Z.2
G1 E1 F2100
;TYPE:External perimeter
G1 F1200
G1 X41.59 Y143.41 E1.04034
G1 X41.59 Y206.59 E1.98096
G1 X8.41 Y206.59 E1.04034
G1 X8.41 Y143.47 E1.97908
M73 Q0 S120
G1 X8.784 Y143.552 F10800
G1 X8.787 Y143.787
;TYPE:Perimeter
G1 F1200
G1 X41.213 Y143.787 E1.01669
G1 X41.213 Y206.213 E1.95732
G1 X8.787 Y206.213 E1.01669
G1 X8.787 Y143.847 E1.95544
;WIPE_START
G1 F8640
G1 X12.901 Y143.839 E-.95
;WIPE_END
G1 E-.05 F2100
G1 Z.4 F10800
G1 X9.59 Y144.59
M73 Q1 S120
G1 Z.2
G1 E1 F2100
;TYPE:External perimeter
G1 F1200
G1 X40.41 Y144.59 E.96634
G1 X40.41 Y205.41 E1.90697
M73 P1 R120
G1 X9.59 Y205.41 E.96634
G1 X9.59 Y144.65 E1.90509
G1 X9.528 Y144.195 F10800
G1 X9.213 Y144.213
;TYPE:Perimeter
G1 F1200
G1 X40.787 Y144.213 E.98999
G1 X40.787 Y205.787 E1.93061
G1 X9.213 Y205.787 E.98999
G1 X9.213 Y144.273 E1.92873
; stop printing object Solar Brace.stl id:0 copy 17
; printing object Solar Brace.stl id:0 copy 8
;WIPE_START
G1 F8640
M73 P1 R119
G1 X13.327 Y144.265 E-.95
;WIPE_END
G1 E-.05 F2100
G1 Z.4 F10800
G1 X48.41 Y143.41
G1 Z.2
G1 E1 F2100
;TYPE:External perimeter
G1 F1200
G1 X81.59 Y143.41 E1.04034
G1 X81.59 Y206.59 E1.98096
G1 X48.41 Y206.59 E1.04034
G1 X48.41 Y143.47 E1.97908
G1 X48.784 Y143.552 F10800
G1 X48.787 Y143.787
;TYPE:Perimeter
G1 F1200
G1 X81.213 Y143.787 E1.01669
G1 X81.213 Y206.213 E1.95732
G1 X48.787 Y206.213 E1.01669
G1 X48.787 Y143.847 E1.95544
;WIPE_START
G1 F8640
G1 X52.901 Y143.839 E-.95
;WIPE_END
G1 E-.05 F2100
G1 Z.4 F10800
G1 X49.59 Y144.59
G1 Z.2
G1 E1 F2100
;TYPE:External perimeter
G1 F1200
G1 X80.41 Y144.59 E.96634
G1 X80.41 Y205.41 E1.90697
G1 X49.59 Y205.41 E.96634
G1 X49.59 Y144.65 E1.90509
G1 X49.528 Y144.195 F10800
M73 Q1 S119
G1 X49.213 Y144.213
;TYPE:Perimeter
G1 F1200
G1 X80.787 Y144.213 E.98999
G1 X80.787 Y205.787 E1.93061
G1 X49.213 Y205.787 E.98999
G1 X49.213 Y144.273 E1.92873
; stop printing object Solar Brace.stl id:0 copy 8
; printing object Solar Brace.stl id:0 copy 7
;WIPE_START
G1 F8640
G1 X53.327 Y144.265 E-.95
;WIPE_END
G1 E-.05 F2100
G1 Z.4 F10800
G1 X88.41 Y143.41
G1 Z.2
G1 E1 F2100
;TYPE:External perimeter
G1 F1200
G1 X121.59 Y143.41 E1.04034
G1 X121.59 Y206.59 E1.98096
G1 X88.41 Y206.59 E1.04034
G1 X88.41 Y143.47 E1.97908
G1 X88.784 Y143.552 F10800
G1 X88.787 Y143.787
;TYPE:Perimeter
G1 F1200
G1 X121.213 Y143.787 E1.01669
G1 X121.213 Y206.213 E1.95732
G1 X88.787 Y206.213 E1.01669
G1 X88.787 Y143.847 E1.95544
;WIPE_START
M73 P2 R119
M73 Q2 S119
G1 F8640
M73 P2 R118
G1 X92.901 Y143.839 E-.95
;WIPE_END
G1 E-.05 F2100
G1 Z.4 F10800
G1 X89.59 Y144.59
G1 Z.2
G1 E1 F2100
;TYPE:External perimeter
G1 F1200
G1 X120.41 Y144.59 E.96634
G1 X120.41 Y205.41 E1.90697
G1 X89.59 Y205.41 E.96634
G1 X89.59 Y144.65 E1.90509
G1 X89.528 Y144.195 F10800
G1 X89.213 Y144.213
;TYPE:Perimeter
G1 F1200
G1 X120.787 Y144.213 E.98999
G1 X120.787 Y205.787 E1.93061
G1 X89.213 Y205.787 E.98999
G1 X89.213 Y144.273 E1.92873
; stop printing object Solar Brace.stl id:0 copy 7
; printing object Solar Brace.stl id:0 copy 6
;WIPE_START
G1 F8640
G1 X93.327 Y144.265 E-.95
;WIPE_END
G1 E-.05 F2100
G1 Z.4 F10800
G1 X128.41 Y143.41
G1 Z.2
G1 E1 F2100
;TYPE:External perimeter
G1 F1200
G1 X161.59 Y143.41 E1.04034
G1 X161.59 Y206.59 E1.98096
G1 X128.41 Y206.59 E1.04034
G1 X128.41 Y143.47 E1.97908
G1 X128.784 Y143.552 F10800
M73 Q2 S118
G1 X128.787 Y143.787
;TYPE:Perimeter
G1 F1200
G1 X161.213 Y143.787 E1.01669
G1 X161.213 Y206.213 E1.95732
G1 X128.787 Y206.213 E1.01669
G1 X128.787 Y143.847 E1.95544
;WIPE_START
G1 F8640
G1 X132.901 Y143.839 E-.95
;WIPE_END
G1 E-.05 F2100
G1 Z.4 F10800
G1 X129.59 Y144.59
G1 Z.2
G1 E1 F2100
;TYPE:External perimeter
G1 F1200
G1 X160.41 Y144.59 E.96634
G1 X160.41 Y205.41 E1.90697
G1 X129.59 Y205.41 E.96634
G1 X129.59 Y144.65 E1.90509
G1 X129.528 Y144.195 F10800
G1 X129.213 Y144.213
;TYPE:Perimeter
G1 F1200
G1 X160.787 Y144.213 E.98999
G1 X160.787 Y205.787 E1.93061
G1 X129.213 Y205.787 E.98999
G1 X129.213 Y144.273 E1.92873
; stop printing object Solar Brace.stl id:0 copy 6
; printing object Solar Brace.stl id:0 copy 11
;WIPE_START
G1 F8640
G1 X133.327 Y144.265 E-.95
;WIPE_END
G1 E-.05 F2100
G1 Z.4 F10800
G1 X168.41 Y143.41
G1 Z.2
G1 E1 F2100
;TYPE:External perimeter
G1 F1200
G1 X201.59 Y143.41 E1.04034
G1 X201.59 Y206.59 E1.98096
M73 P2 R117
G1 X168.41 Y206.59 E1.04034
G1 X168.41 Y143.47 E1.97908
G1 X168.784 Y143.552 F10800
G1 X168.787 Y143.787
;TYPE:Perimeter
G1 F1200
G1 X201.213 Y143.787 E1.01669
G1 X201.213 Y206.213 E1.95732
M73 P3 R117
M73 Q3 S118
G1 X168.787 Y206.213 E1.01669
G1 X168.787 Y143.847 E1.95544
;WIPE_START
G1 F8640
G1 X172.901 Y143.839 E-.95
;WIPE_END
G1 E-.05 F2100
G1 Z.4 F10800
G1 X169.59 Y144.59
G1 Z.2
G1 E1 F2100
;TYPE:External perimeter
G1 F1200
G1 X200.41 Y144.59 E.96634
G1 X200.41 Y205.41 E1.90697
G1 X169.59 Y205.41 E.96634
G1 X169.59 Y144.65 E1.90509
G1 X169.528 Y144.195 F10800
G1 X169.213 Y144.213
;TYPE:Perimeter
G1 F1200
G1 X200.787 Y144.213 E.98999
G1 X200.787 Y205.787 E1.93061
M73 Q3 S117
G1 X169.213 Y205.787 E.98999
G1 X169.213 Y144.273 E1.92873
; stop printing object Solar Brace.stl id:0 copy 11
; printing object Solar Brace.stl id:0 copy 12
;WIPE_START
G1 F8640
G1 X173.327 Y144.265 E-.95
;WIPE_END
G1 E-.05 F2100
G1 Z.4 F10800
G1 X208.41 Y143.41
G1 Z.2
G1 E1 F2100
;TYPE:External perimeter
G1 F1200
G1 X241.59 Y143.41 E1.04034
G1 X241.59 Y206.59 E1.98096
G1 X208.41 Y206.59 E1.04034
G1 X208.41 Y143.47 E1.97908
G1 X208.784 Y143.552 F10800
G1 X208.787 Y143.787
;TYPE:Perimeter
G1 F1200
G1 X241.213 Y143.787 E1.01669
G1 X241.213 Y206.213 E1.95732
G1 X208.787 Y206.213 E1.01669
G1 X208.787 Y143.847 E1.95544
;WIPE_START
G1 F8640
G1 X212.901 Y143.839 E-.95
;WIPE_END
G1 E-.05 F2100
G1 Z.4 F10800
G1 X209.59 Y144.59
G1 Z.2
G1 E1 F2100
;TYPE:External perimeter
G1 F1200
G1 X240.41 Y144.59 E.96634
G1 X240.41 Y205.41 E1.90697
G1 X209.59 Y205.41 E.96634
M73 P3 R116
G1 X209.59 Y144.65 E1.90509
G1 X209.528 Y144.195 F10800
G1 X209.213 Y144.213
;TYPE:Perimeter
G1 F1200
G1 X240.787 Y144.213 E.98999
G1 X240.787 Y205.787 E1.93061
G1 X209.213 Y205.787 E.98999
G1 X209.213 Y144.273 E1.92873
; stop printing object Solar Brace.stl id:0 copy 12
; printing object Solar Brace.stl id:0 copy 13
;WIPE_START
G1 F8640
G1 X213.327 Y144.265 E-.95
;WIPE_END
G1 E-.05 F2100
G1 Z.4 F10800
G1 X208.41 Y136.59
G1 Z.2
G1 E1 F2100
;TYPE:External perimeter
G1 F1200
G1 X208.41 Y73.41 E1.98096
G1 X241.59 Y73.41 E1.04034
G1 X241.59 Y136.59 E1.98096
G1 X208.47 Y136.59 E1.03845
M73 P4 R116
M73 Q4 S117
G1 X208.474 Y136.195 F10800
G1 X208.787 Y136.213
;TYPE:Perimeter
G1 F1200
G1 X208.787 Y73.787 E1.95732
G1 X241.213 Y73.787 E1.01669
M73 Q4 S116
G1 X241.213 Y136.213 E1.95732
G1 X208.847 Y136.213 E1.01481
;WIPE_START
G1 F8640
G1 X208.843 Y132.099 E-.95
;WIPE_END
G1 E-.05 F2100
G1 Z.4 F10800
G1 X209.59 Y135.41
G1 Z.2
G1 E1 F2100
;TYPE:External perimeter
G1 F1200
G1 X209.59 Y74.59 E1.90697
G1 X240.41 Y74.59 E.96634
G1 X240.41 Y135.41 E1.90697
G1 X209.65 Y135.41 E.96446
G1 X209.217 Y135.554 F10800
G1 X209.213 Y135.787
;TYPE:Perimeter
G1 F1200
G1 X209.213 Y74.213 E1.93061
G1 X240.787 Y74.213 E.98999
G1 X240.787 Y135.787 E1.93061
G1 X209.273 Y135.787 E.9881
; stop printing object Solar Brace.stl id:0 copy 13
; printing object Solar Brace.stl id:0 copy 9
;WIPE_START
G1 F8640
G1 X209.269 Y131.673 E-.95
;WIPE_END
G1 E-.05 F2100
G1 Z.4 F10800
G1 X201.59 Y136.59
G1 Z.2
G1 E1 F2100
;TYPE:External perimeter
G1 F1200
G1 X168.41 Y136.59 E1.04034
G1 X168.41 Y73.41 E1.98096
G1 X201.59 Y73.41 E1.04034
G1 X201.59 Y136.53 E1.97908
M73 P4 R115
G1 X201.216 Y136.448 F10800
G1 X201.213 Y136.213
;TYPE:Perimeter
G1 F1200
G1 X168.787 Y136.213 E1.01669
G1 X168.787 Y73.787 E1.95732
G1 X201.213 Y73.787 E1.01669
G1 X201.213 Y136.153 E1.95544
;WIPE_START
G1 F8640
G1 X197.099 Y136.161 E-.95
;WIPE_END
G1 E-.05 F2100
G1 Z.4 F10800
G1 X200.41 Y135.41
G1 Z.2
G1 E1 F2100
;TYPE:External perimeter
G1 F1200
G1 X169.59 Y135.41 E.96634
G1 X169.59 Y74.59 E1.90697
G1 X200.41 Y74.59 E.96634
G1 X200.41 Y135.35 E1.90509
G1 X200.472 Y135.805 F10800
G1 X200.787 Y135.787
;TYPE:Perimeter
G1 F1200
G1 X169.213 Y135.787 E.98999
G1 X169.213 Y74.213 E1.93061
G1 X200.787 Y74.213 E.98999
M73 Q4 S115
G1 X200.787 Y135.727 E1.92873
; stop printing object Solar Brace.stl id:0 copy 9
; printing object Solar Brace.stl id:0 copy 0
;WIPE_START
G1 F8640
G1 X196.673 Y135.735 E-.95
;WIPE_END
G1 E-.05 F2100
G1 Z.4 F10800
G1 X161.59 Y136.59
G1 Z.2
G1 E1 F2100
;TYPE:External perimeter
G1 F1200
G1 X128.41 Y136.59 E1.04034
G1 X128.41 Y73.41 E1.98096
M73 P5 R115
M73 Q5 S115
G1 X161.59 Y73.41 E1.04034
G1 X161.59 Y136.53 E1.97908
G1 X161.216 Y136.448 F10800
G1 X161.213 Y136.213
;TYPE:Perimeter
G1 F1200
G1 X128.787 Y136.213 E1.01669
G1 X128.787 Y73.787 E1.95732
G1 X161.213 Y73.787 E1.01669
G1 X161.213 Y136.153 E1.95544
;WIPE_START
G1 F8640
G1 X157.099 Y136.161 E-.95
;WIPE_END
G1 E-.05 F2100
G1 Z.4 F10800
G1 X160.41 Y135.41
G1 Z.2
G1 E1 F2100
;TYPE:External perimeter
G1 F1200
G1 X129.59 Y135.41 E.96634
G1 X129.59 Y74.59 E1.90697
G1 X160.41 Y74.59 E.96634
G1 X160.41 Y135.35 E1.90509
G1 X160.472 Y135.805 F10800
M73 P5 R114
G1 X160.787 Y135.787
;TYPE:Perimeter
G1 F1200
G1 X129.213 Y135.787 E.98999
G1 X129.213 Y74.213 E1.93061
G1 X160.787 Y74.213 E.98999
G1 X160.787 Y135.727 E1.92873
; stop printing object Solar Brace.stl id:0 copy 0
; printing object Solar Brace.stl id:0 copy 1
;WIPE_START
G1 F8640
G1 X156.673 Y135.735 E-.95
;WIPE_END
G1 E-.05 F2100
G1 Z.4 F10800
G1 X121.59 Y136.59
G1 Z.2
G1 E1 F2100
;TYPE:External perimeter
G1 F1200
G1 X88.41 Y136.59 E1.04034
G1 X88.41 Y73.41 E1.98096
G1 X121.59 Y73.41 E1.04034
G1 X121.59 Y136.53 E1.97908
G1 X121.216 Y136.448 F10800
G1 X121.213 Y136.213
;TYPE:Perimeter
G1 F1200
G1 X88.787 Y136.213 E1.01669
G1 X88.787 Y73.787 E1.95732
G1 X121.213 Y73.787 E1.01669
G1 X121.213 Y136.153 E1.95544
;WIPE_START
M73 Q5 S114
G1 F8640
G1 X117.099 Y136.161 E-.95
;WIPE_END
G1 E-.05 F2100
G1 Z.4 F10800
G1 X120.41 Y135.41
G1 Z.2
G1 E1 F2100
;TYPE:External perimeter
G1 F1200
G1 X89.59 Y135.41 E.96634
G1 X89.59 Y74.59 E1.90697
G1 X120.41 Y74.59 E.96634
G1 X120.41 Y135.35 E1.90509
G1 X120.472 Y135.805 F10800
G1 X120.787 Y135.787
;TYPE:Perimeter
G1 F1200
G1 X89.213 Y135.787 E.98999
G1 X89.213 Y74.213 E1.93061
G1 X120.787 Y74.213 E.98999
G1 X120.787 Y135.727 E1.92873
; stop printing object Solar Brace.stl id:0 copy 1
; printing object Solar Brace.stl id:0 copy 4
;WIPE_START
G1 F8640
M73 P6 R114
M73 Q6 S114
G1 X116.673 Y135.735 E-.95
;WIPE_END
G1 E-.05 F2100
G1 Z.4 F10800
G1 X81.59 Y136.59
G1 Z.2
G1 E1 F2100
;TYPE:External perimeter
G1 F1200
G1 X48.41 Y136.59 E1.04034
G1 X48.41 Y73.41 E1.98096
G1 X81.59 Y73.41 E1.04034
G1 X81.59 Y136.53 E1.97908
G1 X81.216 Y136.448 F10800
M73 P6 R113
G1 X81.213 Y136.213
;TYPE:Perimeter
G1 F1200
G1 X48.787 Y136.213 E1.01669
G1 X48.787 Y73.787 E1.95732
G1 X81.213 Y73.787 E1.01669
G1 X81.213 Y136.153 E1.95544
;WIPE_START
G1 F8640
G1 X77.099 Y136.161 E-.95
;WIPE_END
G1 E-.05 F2100
G1 Z.4 F10800
G1 X80.41 Y135.41
G1 Z.2
G1 E1 F2100
;TYPE:External perimeter
G1 F1200
G1 X49.59 Y135.41 E.96634
G1 X49.59 Y74.59 E1.90697
G1 X80.41 Y74.59 E.96634
G1 X80.41 Y135.35 E1.90509
G1 X80.472 Y135.805 F10800
G1 X80.787 Y135.787
;TYPE:Perimeter
G1 F1200
G1 X49.213 Y135.787 E.98999
G1 X49.213 Y74.213 E1.93061
G1 X80.787 Y74.213 E.98999
G1 X80.787 Y135.727 E1.92873
; stop printing object Solar Brace.stl id:0 copy 4
; printing object Solar Brace.stl id:0 copy 15
;WIPE_START
G1 F8640
M73 Q6 S113
G1 X76.673 Y135.735 E-.95
;WIPE_END
G1 E-.05 F2100
G1 Z.4 F10800
G1 X41.59 Y136.59
G1 Z.2
G1 E1 F2100
;TYPE:External perimeter
G1 F1200
G1 X8.41 Y136.59 E1.04034
G1 X8.41 Y73.41 E1.98096
G1 X41.59 Y73.41 E1.04034
G1 X41.59 Y136.53 E1.97908
G1 X41.216 Y136.448 F10800
G1 X41.213 Y136.213
;TYPE:Perimeter
G1 F1200
G1 X8.787 Y136.213 E1.01669
G1 X8.787 Y73.787 E1.95732
G1 X41.213 Y73.787 E1.01669
G1 X41.213 Y136.153 E1.95544
;WIPE_START
G1 F8640
G1 X37.099 Y136.161 E-.95
;WIPE_END
G1 E-.05 F2100
G1 Z.4 F10800
G1 X40.41 Y135.41
G1 Z.2
G1 E1 F2100
;TYPE:External perimeter
G1 F1200
G1 X9.59 Y135.41 E.96634
G1 X9.59 Y74.59 E1.90697
G1 X40.41 Y74.59 E.96634
G1 X40.41 Y135.35 E1.90509
G1 X40.472 Y135.805 F10800
G1 X40.787 Y135.787
;TYPE:Perimeter
G1 F1200
G1 X9.213 Y135.787 E.98999
G1 X9.213 Y74.213 E1.93061
M73 P6 R112
G1 X40.787 Y74.213 E.98999
M73 P7 R112
M73 Q7 S113
G1 X40.787 Y135.727 E1.92873
; stop printing object Solar Brace.stl id:0 copy 15
; printing object Solar Brace.stl id:0 copy 16
;WIPE_START
G1 F8640
G1 X36.673 Y135.735 E-.95
;WIPE_END
G1 E-.05 F2100
G1 Z.4 F10800
G1 X41.59 Y66.59
G1 Z.2
G1 E1 F2100
;TYPE:External perimeter
G1 F1200
G1 X8.41 Y66.59 E1.04034
G1 X8.41 Y3.41 E1.98096
G1 X41.59 Y3.41 E1.04034
G1 X41.59 Y66.53 E1.97908
G1 X41.216 Y66.448 F10800
G1 X41.213 Y66.213
;TYPE:Perimeter
G1 F1200
G1 X8.787 Y66.213 E1.01669
G1 X8.787 Y3.787 E1.95732
G1 X41.213 Y3.787 E1.01669
G1 X41.213 Y66.153 E1.95544
;WIPE_START
G1 F8640
M73 Q7 S112
G1 X37.099 Y66.161 E-.95
;WIPE_END
G1 E-.05 F2100
G1 Z.4 F10800
G1 X40.41 Y65.41
G1 Z.2
G1 E1 F2100
;TYPE:External perimeter
G1 F1200
G1 X9.59 Y65.41 E.96634
G1 X9.59 Y4.59 E1.90697
G1 X40.41 Y4.59 E.96634
G1 X40.41 Y65.35 E1.90509
G1 X40.472 Y65.805 F10800
G1 X40.787 Y65.787
;TYPE:Perimeter
G1 F1200
G1 X9.213 Y65.787 E.98999
G1 X9.213 Y4.213 E1.93061
G1 X40.787 Y4.213 E.98999
G1 X40.787 Y65.727 E1.92873
; stop printing object Solar Brace.stl id:0 copy 16
; printing object Solar Brace.stl id:0 copy 5
;WIPE_START
G1 F8640
G1 X36.673 Y65.735 E-.95
;WIPE_END
G1 E-.05 F2100
G1 Z.4 F10800
G1 X48.41 Y66.59
G1 Z.2
G1 E1 F2100
;TYPE:External perimeter
G1 F1200
G1 X48.41 Y3.41 E1.98096
G1 X81.59 Y3.41 E1.04034
G1 X81.59 Y66.59 E1.98096
G1 X48.47 Y66.59 E1.03845
G1 X48.474 Y66.195 F10800
G1 X48.787 Y66.213
;TYPE:Perimeter
G1 F1200
G1 X48.787 Y3.787 E1.95732
G1 X81.213 Y3.787 E1.01669
M73 P7 R111
G1 X81.213 Y66.213 E1.95732
G1 X48.847 Y66.213 E1.01481
;WIPE_START
G1 F8640
G1 X48.843 Y62.099 E-.95
;WIPE_END
G1 E-.05 F2100
G1 Z.4 F10800
G1 X49.59 Y65.41
G1 Z.2
G1 E1 F2100
;TYPE:External perimeter
G1 F1200
