; generated by PrusaSlicer 2.3.1+win64 on 2021-07-06 at 20:18:35 UTC

; 

; external perimeters extrusion width = 0.45mm
; perimeters extrusion width = 0.45mm
; infill extrusion width = 0.45mm
; solid infill extrusion width = 0.45mm
; top infill extrusion width = 0.40mm
; first layer extrusion width = 0.42mm

M73 P0 R103
M73 Q0 S103
M201 X1000 Y1000 Z200 E5000 ; sets maximum accelerations, mm/sec^2
M203 X200 Y200 Z12 E120 ; sets maximum feedrates, mm/sec
M204 P1250 R1250 T1250 ; sets acceleration (P, T) and retract acceleration (R), mm/sec^2
M205 X8.00 Y8.00 Z0.40 E4.50 ; sets the jerk limits, mm/sec
M205 S0 T0 ; sets the minimum extruding and travel feed rate, mm/sec
M107
;TYPE:Custom
M862.3 P "MK3S" ; printer model check
M862.1 P0.4 ; nozzle diameter check
M115 U3.9.3 ; tell printer latest fw version
G90 ; use absolute coordinates
M83 ; extruder relative mode
M104 S230 ; set extruder temp
M140 S85 ; set bed temp
M190 S85 ; wait for bed temp
M109 S230 ; wait for extruder temp
G28 W ; home all without mesh bed level
G80 ; mesh bed leveling
G1 Y-3.0 F1000.0 ; go outside print area
G92 E0.0
G1 X60.0 E9.0 F1000.0 ; intro line
G1 X100.0 E12.5 F1000.0 ; intro line
G92 E0.0
M221 S95

; Don't change E values below. Excessive value can damage the printer.
M907 E430 ; set extruder motor current
G21 ; set units to millimeters
G90 ; use absolute coordinates
M83 ; use relative distances for extrusion
M900 K0.08 ; Filament gcode LA 1.5
M900 K45 ; Filament gcode LA 1.0
;LAYER_CHANGE
;Z:0.2
;HEIGHT:0.2
;BEFORE_LAYER_CHANGE
G92 E0.0
;0.2


G1 E-1.40000 F2100.000
G1 Z0.200 F10800.000
;AFTER_LAYER_CHANGE
;0.2
G1 Z0.400
G1 X111.471 Y92.445
G1 Z0.200
G1 E1.40000 F2100.000
M204 S1000
;TYPE:Skirt
;WIDTH:0.42
G1 F1200.000
G1 X112.425 Y92.247 E0.03056
G1 X137.504 Y92.246 E0.78632
G1 X138.509 Y92.437 E0.03208
G1 X139.375 Y92.983 E0.03208
G1 X139.982 Y93.806 E0.03208
G1 X140.246 Y94.794 E0.03208
G1 X140.252 Y115.111 E0.63700
G1 X140.176 Y115.650 E0.01707
G1 X139.996 Y116.164 E0.01707
G1 X139.719 Y116.632 E0.01707
G1 X139.354 Y117.036 E0.01707
G1 X138.529 Y117.555 E0.03056
G1 X137.575 Y117.753 E0.03056
G1 X112.484 Y117.754 E0.78671
G1 X111.918 Y117.692 E0.01784
G1 X111.377 Y117.515 E0.01784
G1 X110.888 Y117.233 E0.01771
G1 X110.464 Y116.854 E0.01784
G1 X109.948 Y116.036 E0.03031
G1 X109.747 Y115.091 E0.03031
G1 X109.746 Y94.980 E0.63058
G1 X109.808 Y94.418 E0.01771
G1 X109.985 Y93.877 E0.01784
G1 X110.267 Y93.388 E0.01771
G1 X110.646 Y92.964 E0.01784
G1 X111.420 Y92.477 E0.02868
G1 X111.617 Y92.795 F10800.000
G1 F1200.000
G1 X112.446 Y92.624 E0.02654
G1 X137.504 Y92.623 E0.78568
G1 X138.378 Y92.791 E0.02790
G1 X139.126 Y93.266 E0.02778
G1 X139.650 Y93.985 E0.02790
G1 X139.872 Y94.847 E0.02790
G1 X139.876 Y115.084 E0.63452
G1 X139.653 Y116.007 E0.02977
G1 X139.084 Y116.772 E0.02989
G1 X138.375 Y117.210 E0.02614
G1 X137.554 Y117.376 E0.02626
G1 X112.485 Y117.377 E0.78604
G1 X111.994 Y117.322 E0.01550
G1 X111.524 Y117.168 E0.01550
G1 X111.097 Y116.919 E0.01550
G1 X110.728 Y116.584 E0.01562
G1 X110.291 Y115.879 E0.02602
G1 X110.124 Y115.066 E0.02602
G1 X110.123 Y94.981 E0.62975
G1 X110.178 Y94.490 E0.01550
G1 X110.334 Y94.021 E0.01550
G1 X110.583 Y93.594 E0.01550
G1 X110.916 Y93.228 E0.01550
G1 X111.566 Y92.826 E0.02395
; printing object sensor.stl id:0 copy 0
;WIPE_START
G1 F8640.000
G1 X112.446 Y92.624 E-0.20853
G1 X117.302 Y92.623 E-1.12147
;WIPE_END
G1 E-0.07000 F2100.000
G1 Z0.400 F10800.000
G1 X113.713 Y99.213
G1 Z0.200
G1 E1.40000 F2100.000
;TYPE:Perimeter
G1 F1200.000
G1 X136.287 Y99.213 E0.70780
G1 X136.287 Y102.787 E0.11207
G1 X113.713 Y102.787 E0.70780
G1 X113.713 Y99.273 E0.11018
G1 X114.090 Y99.590 F10800.000
;TYPE:External perimeter
G1 F1200.000
G1 X135.910 Y99.590 E0.68415
G1 X135.910 Y102.410 E0.08842
G1 X114.090 Y102.410 E0.68415
G1 X114.090 Y99.650 E0.08654
G1 X113.905 Y99.235 F10800.000
;WIPE_START
G1 F8640.000
G1 X119.850 Y99.634 E-1.33000
;WIPE_END
G1 E-0.07000 F2100.000
G1 Z0.400 F10800.000
G1 X113.287 Y95.787
G1 Z0.200
G1 E1.40000 F2100.000
;TYPE:Perimeter
G1 F1200.000
G1 X136.713 Y95.787 E0.73450
G1 X136.713 Y114.213 E0.57773
G1 X113.287 Y114.213 E0.73450
G1 X113.287 Y95.847 E0.57585
G1 X112.910 Y95.410 F10800.000
;TYPE:External perimeter
G1 F1200.000
G1 X137.090 Y95.410 E0.75815
G1 X137.090 Y114.590 E0.60138
G1 X112.910 Y114.590 E0.75815
G1 X112.910 Y95.470 E0.59949
M73 P0 R102
G1 X113.300 Y95.499 F10800.000
;WIPE_START
G1 F8640.000
G1 X118.670 Y95.456 E-1.33000
;WIPE_END
G1 E-0.07000 F2100.000
G1 Z0.400 F10800.000
G1 X135.829 Y95.900
G1 Z0.200
G1 E1.40000 F2100.000
;TYPE:Solid infill
;WIDTH:0.42379
G1 F1200.000
G1 X136.430 Y96.501 E0.02690
G1 X136.430 Y97.039 E0.01706
G1 X135.461 Y96.070 E0.04342
G1 X134.922 Y96.070 E0.01706
G1 X136.430 Y97.578 E0.06755
G1 X136.430 Y98.117 E0.01706
G1 X134.383 Y96.070 E0.09167
G1 X133.845 Y96.070 E0.01706
G1 X136.430 Y98.655 E0.11580
G1 X136.430 Y98.930 E0.00870
G1 X136.166 Y98.930 E0.00836
G1 X133.306 Y96.070 E0.12810
G1 X132.767 Y96.070 E0.01706
G1 X135.628 Y98.930 E0.12810
G1 X135.089 Y98.930 E0.01706
G1 X132.229 Y96.070 E0.12810
G1 X131.690 Y96.070 E0.01706
G1 X134.550 Y98.930 E0.12810
G1 X134.012 Y98.930 E0.01706
G1 X131.151 Y96.070 E0.12810
G1 X130.613 Y96.070 E0.01706
G1 X133.473 Y98.930 E0.12810
G1 X132.934 Y98.930 E0.01706
G1 X130.074 Y96.070 E0.12810
G1 X129.536 Y96.070 E0.01706
G1 X132.396 Y98.930 E0.12810
G1 X131.857 Y98.930 E0.01706
G1 X128.997 Y96.070 E0.12810
G1 X128.458 Y96.070 E0.01706
G1 X131.319 Y98.930 E0.12810
G1 X130.780 Y98.930 E0.01706
G1 X127.920 Y96.070 E0.12810
G1 X127.381 Y96.070 E0.01706
G1 X130.241 Y98.930 E0.12810
G1 X129.703 Y98.930 E0.01706
G1 X126.842 Y96.070 E0.12810
G1 X126.304 Y96.070 E0.01706
G1 X129.164 Y98.930 E0.12810
G1 X128.625 Y98.930 E0.01706
G1 X125.765 Y96.070 E0.12810
G1 X125.227 Y96.070 E0.01706
G1 X128.087 Y98.930 E0.12810
G1 X127.548 Y98.930 E0.01706
G1 X124.688 Y96.070 E0.12810
G1 X124.149 Y96.070 E0.01706
G1 X127.010 Y98.930 E0.12810
G1 X126.471 Y98.930 E0.01706
G1 X123.611 Y96.070 E0.12810
G1 X123.072 Y96.070 E0.01706
G1 X125.932 Y98.930 E0.12810
G1 X125.394 Y98.930 E0.01706
G1 X122.533 Y96.070 E0.12810
G1 X121.995 Y96.070 E0.01706
G1 X124.855 Y98.930 E0.12810
G1 X124.316 Y98.930 E0.01706
G1 X121.456 Y96.070 E0.12810
G1 X120.917 Y96.070 E0.01706
G1 X123.778 Y98.930 E0.12810
G1 X123.239 Y98.930 E0.01706
G1 X120.379 Y96.070 E0.12810
G1 X119.840 Y96.070 E0.01706
G1 X122.700 Y98.930 E0.12810
G1 X122.162 Y98.930 E0.01706
G1 X119.302 Y96.070 E0.12810
G1 X118.763 Y96.070 E0.01706
G1 X121.623 Y98.930 E0.12810
G1 X121.085 Y98.930 E0.01706
G1 X118.224 Y96.070 E0.12810
G1 X117.686 Y96.070 E0.01706
G1 X120.546 Y98.930 E0.12810
G1 X120.007 Y98.930 E0.01706
G1 X117.147 Y96.070 E0.12810
G1 X116.608 Y96.070 E0.01706
G1 X119.469 Y98.930 E0.12810
G1 X118.930 Y98.930 E0.01706
G1 X116.070 Y96.070 E0.12810
G1 X115.531 Y96.070 E0.01706
G1 X118.391 Y98.930 E0.12810
G1 X117.853 Y98.930 E0.01706
G1 X114.993 Y96.070 E0.12810
G1 X114.454 Y96.070 E0.01706
G1 X117.314 Y98.930 E0.12810
G1 X116.776 Y98.930 E0.01706
G1 X113.915 Y96.070 E0.12810
G1 X113.570 Y96.070 E0.01094
G1 X113.570 Y96.263 E0.00612
G1 X116.237 Y98.930 E0.11945
G1 X115.698 Y98.930 E0.01706
G1 X113.570 Y96.802 E0.09533
G1 X113.570 Y97.340 E0.01706
G1 X115.160 Y98.930 E0.07120
G1 X114.621 Y98.930 E0.01706
G1 X113.570 Y97.879 E0.04708
G1 X113.570 Y98.418 E0.01706
G1 X114.252 Y99.100 E0.03055
;WIPE_START
G1 F8640.000
G1 X113.570 Y98.418 E-0.22277
G1 X113.570 Y97.879 E-0.12437
G1 X114.621 Y98.930 E-0.34324
G1 X115.160 Y98.930 E-0.12437
G1 X113.582 Y97.352 E-0.51525
;WIPE_END
G1 E-0.07000 F2100.000
G1 Z0.400 F10800.000
G1 X135.827 Y102.900
G1 Z0.200
G1 E1.40000 F2100.000
G1 F1200.000
G1 X136.430 Y103.503 E0.02700
G1 X136.430 Y104.042 E0.01706
G1 X135.458 Y103.070 E0.04352
G1 X134.920 Y103.070 E0.01706
G1 X136.430 Y104.580 E0.06765
G1 X136.430 Y105.119 E0.01706
G1 X134.381 Y103.070 E0.09177
G1 X133.842 Y103.070 E0.01706
G1 X136.430 Y105.658 E0.11590
G1 X136.430 Y106.196 E0.01706
G1 X133.304 Y103.070 E0.14002
G1 X132.765 Y103.070 E0.01706
G1 X136.430 Y106.735 E0.16414
G1 X136.430 Y107.273 E0.01706
G1 X132.227 Y103.070 E0.18827
G1 X131.688 Y103.070 E0.01706
G1 X136.430 Y107.812 E0.21239
G1 X136.430 Y108.351 E0.01706
G1 X131.149 Y103.070 E0.23651
G1 X130.611 Y103.070 E0.01706
G1 X136.430 Y108.889 E0.26064
G1 X136.430 Y109.428 E0.01706
G1 X130.072 Y103.070 E0.28476
G1 X129.533 Y103.070 E0.01706
G1 X136.430 Y109.967 E0.30889
G1 X136.430 Y110.505 E0.01706
G1 X128.995 Y103.070 E0.33301
G1 X128.456 Y103.070 E0.01706
G1 X136.430 Y111.044 E0.35713
G1 X136.430 Y111.582 E0.01706
G1 X127.917 Y103.070 E0.38126
G1 X127.379 Y103.070 E0.01706
G1 X136.430 Y112.121 E0.40538
G1 X136.430 Y112.660 E0.01706
G1 X126.840 Y103.070 E0.42951
G1 X126.302 Y103.070 E0.01706
G1 X136.430 Y113.198 E0.45363
G1 X136.430 Y113.737 E0.01706
G1 X125.763 Y103.070 E0.47775
G1 X125.224 Y103.070 E0.01706
G1 X136.085 Y113.930 E0.48640
G1 X135.546 Y113.930 E0.01706
G1 X124.686 Y103.070 E0.48640
M73 Q0 S102
G1 X124.147 Y103.070 E0.01706
G1 X135.007 Y113.930 E0.48640
G1 X134.469 Y113.930 E0.01706
G1 X123.608 Y103.070 E0.48640
G1 X123.070 Y103.070 E0.01706
G1 X133.930 Y113.930 E0.48640
G1 X133.391 Y113.930 E0.01706
G1 X122.531 Y103.070 E0.48640
G1 X121.993 Y103.070 E0.01706
G1 X132.853 Y113.930 E0.48640
G1 X132.314 Y113.930 E0.01706
G1 X121.454 Y103.070 E0.48640
G1 X120.915 Y103.070 E0.01706
G1 X131.776 Y113.930 E0.48640
G1 X131.237 Y113.930 E0.01706
G1 X120.377 Y103.070 E0.48640
G1 X119.838 Y103.070 E0.01706
G1 X130.698 Y113.930 E0.48640
M73 Q1 S102
G1 X130.160 Y113.930 E0.01706
G1 X119.299 Y103.070 E0.48640
M73 P1 R102
G1 X118.761 Y103.070 E0.01706
G1 X129.621 Y113.930 E0.48640
G1 X129.082 Y113.930 E0.01706
G1 X118.222 Y103.070 E0.48640
G1 X117.683 Y103.070 E0.01706
G1 X128.544 Y113.930 E0.48640
G1 X128.005 Y113.930 E0.01706
G1 X117.145 Y103.070 E0.48640
G1 X116.606 Y103.070 E0.01706
G1 X127.466 Y113.930 E0.48640
G1 X126.928 Y113.930 E0.01706
G1 X116.068 Y103.070 E0.48640
G1 X115.529 Y103.070 E0.01706
G1 X126.389 Y113.930 E0.48640
G1 X125.851 Y113.930 E0.01706
G1 X114.990 Y103.070 E0.48640
G1 X114.452 Y103.070 E0.01706
G1 X125.312 Y113.930 E0.48640
G1 X124.773 Y113.930 E0.01706
G1 X113.913 Y103.070 E0.48640
G1 X113.570 Y103.070 E0.01087
G1 X113.570 Y103.265 E0.00619
G1 X124.235 Y113.930 E0.47765
G1 X123.696 Y113.930 E0.01706
G1 X113.570 Y103.804 E0.45353
G1 X113.570 Y104.343 E0.01706
G1 X123.157 Y113.930 E0.42940
G1 X122.619 Y113.930 E0.01706
G1 X113.570 Y104.881 E0.40528
G1 X113.570 Y105.420 E0.01706
G1 X122.080 Y113.930 E0.38115
G1 X121.542 Y113.930 E0.01706
G1 X113.570 Y105.958 E0.35703
G1 X113.570 Y106.497 E0.01706
G1 X121.003 Y113.930 E0.33291
G1 X120.464 Y113.930 E0.01706
G1 X113.570 Y107.036 E0.30878
G1 X113.570 Y107.574 E0.01706
G1 X119.926 Y113.930 E0.28466
G1 X119.387 Y113.930 E0.01706
G1 X113.570 Y108.113 E0.26053
G1 X113.570 Y108.652 E0.01706
G1 X118.848 Y113.930 E0.23641
G1 X118.310 Y113.930 E0.01706
G1 X113.570 Y109.190 E0.21229
G1 X113.570 Y109.729 E0.01706
G1 X117.771 Y113.930 E0.18816
G1 X117.232 Y113.930 E0.01706
G1 X113.570 Y110.268 E0.16404
G1 X113.570 Y110.806 E0.01706
G1 X116.694 Y113.930 E0.13991
G1 X116.155 Y113.930 E0.01706
G1 X113.570 Y111.345 E0.11579
G1 X113.570 Y111.883 E0.01706
G1 X115.617 Y113.930 E0.09167
G1 X115.078 Y113.930 E0.01706
G1 X113.570 Y112.422 E0.06754
G1 X113.570 Y112.961 E0.01706
G1 X114.539 Y113.930 E0.04342
G1 X114.001 Y113.930 E0.01706
G1 X113.400 Y113.330 E0.02690
; stop printing object sensor.stl id:0 copy 0
;LAYER_CHANGE
;Z:0.35
;HEIGHT:0.15
;BEFORE_LAYER_CHANGE
G92 E0.0
;0.35


;WIPE_START
G1 F8640.000
G1 X114.001 Y113.930 E-0.19609
G1 X114.539 Y113.930 E-0.12437
G1 X113.570 Y112.961 E-0.31657
G1 X113.570 Y112.422 E-0.12437
G1 X115.078 Y113.930 E-0.49246
G1 X115.408 Y113.930 E-0.07614
;WIPE_END
G1 E-0.07000 F2100.000
G1 Z0.400 F10800.000
;AFTER_LAYER_CHANGE
;0.35
M104 S240 ; set temperature
M140 S90 ; set bed temperature
G1 X109.948 Y116.036
G1 Z0.350
G1 E1.40000 F2100.000
;TYPE:Skirt
;WIDTH:0.42
G1 F3000.000
G1 X109.747 Y115.091 E0.02338
G1 X109.746 Y94.980 E0.48639
G1 X109.808 Y94.418 E0.01366
G1 X109.985 Y93.877 E0.01376
G1 X110.267 Y93.388 E0.01366
G1 X110.646 Y92.964 E0.01376
G1 X111.471 Y92.445 E0.02357
G1 X112.425 Y92.247 E0.02357
G1 X137.504 Y92.246 E0.60652
G1 X138.509 Y92.437 E0.02474
G1 X139.375 Y92.983 E0.02474
G1 X139.982 Y93.806 E0.02474
G1 X140.246 Y94.794 E0.02474
G1 X140.252 Y115.111 E0.49134
G1 X140.176 Y115.650 E0.01317
G1 X139.996 Y116.164 E0.01317
G1 X139.719 Y116.632 E0.01317
G1 X139.354 Y117.036 E0.01317
G1 X138.529 Y117.555 E0.02357
G1 X137.575 Y117.753 E0.02357
G1 X112.484 Y117.754 E0.60682
G1 X111.918 Y117.692 E0.01376
G1 X111.377 Y117.515 E0.01376
G1 X110.888 Y117.233 E0.01366
G1 X110.464 Y116.854 E0.01376
G1 X109.980 Y116.087 E0.02193
G1 X110.298 Y115.890 F10800.000
G1 F3000.000
G1 X110.124 Y115.066 E0.02038
G1 X110.123 Y94.981 E0.48575
G1 X110.178 Y94.490 E0.01195
G1 X110.334 Y94.021 E0.01195
G1 X110.583 Y93.594 E0.01195
G1 X110.916 Y93.228 E0.01195
G1 X111.625 Y92.790 E0.02016
G1 X112.446 Y92.624 E0.02025
G1 X137.504 Y92.623 E0.60603
G1 X138.378 Y92.791 E0.02152
G1 X139.126 Y93.266 E0.02143
G1 X139.650 Y93.985 E0.02152
G1 X139.872 Y94.847 E0.02152
G1 X139.876 Y115.084 E0.48943
G1 X139.653 Y116.007 E0.02297
G1 X139.084 Y116.772 E0.02306
G1 X138.375 Y117.210 E0.02016
G1 X137.554 Y117.376 E0.02025
G1 X112.485 Y117.377 E0.60631
G1 X111.994 Y117.322 E0.01195
G1 X111.524 Y117.168 E0.01195
G1 X111.097 Y116.919 E0.01195
G1 X110.728 Y116.584 E0.01205
G1 X110.330 Y115.941 E0.01829
; printing object sensor.stl id:0 copy 0
;WIPE_START
G1 F8640.000
G1 X110.124 Y115.066 E-0.20769
G1 X110.124 Y110.205 E-1.12231
;WIPE_END
G1 E-0.07000 F2100.000
G1 Z0.550 F10800.000
G1 X113.857 Y102.643
G1 Z0.350
G1 E1.40000 F2100.000
M204 S800
;TYPE:Perimeter
;WIDTH:0.45
G1 F2700.000
G1 X113.857 Y99.357 E0.08561
G1 X136.143 Y99.357 E0.58067
G1 X136.143 Y102.643 E0.08561
G1 X113.917 Y102.643 E0.57911
M204 S1000
G1 X114.275 Y102.225 F10800.000
M204 S800
;TYPE:External perimeter
G1 F1500.000
G1 X114.275 Y99.775 E0.06384
G1 X135.725 Y99.775 E0.55890
G1 X135.725 Y102.225 E0.06384
G1 X114.335 Y102.225 E0.55733
M204 S1000
G1 X113.875 Y102.240 F10800.000
;WIPE_START
G1 F8640.000
G1 X114.275 Y99.775 E-0.56588
G1 X117.584 Y99.775 E-0.76412
;WIPE_END
G1 E-0.07000 F2100.000
G1 Z0.550 F10800.000
G1 X113.143 Y95.643
G1 Z0.350
G1 E1.40000 F2100.000
M204 S800
;TYPE:Perimeter
G1 F2700.000
G1 X136.857 Y95.643 E0.61790
G1 X136.857 Y114.357 E0.48762
G1 X113.143 Y114.357 E0.61790
G1 X113.143 Y95.703 E0.48605
M204 S1000
G1 X112.725 Y95.225 F10800.000
M204 S800
;TYPE:External perimeter
G1 F1500.000
G1 X137.275 Y95.225 E0.63967
G1 X137.275 Y114.775 E0.50939
M73 P1 R101
G1 X112.725 Y114.775 E0.63967
G1 X112.725 Y95.285 E0.50783
M204 S1000
G1 X113.115 Y95.314 F10800.000
;WIPE_START
G1 F8640.000
G1 X118.485 Y95.271 E-1.33000
;WIPE_END
G1 E-0.07000 F2100.000
G1 Z0.550 F10800.000
G1 X114.120 Y95.768
G1 Z0.350
G1 E1.40000 F2100.000
;TYPE:Solid infill
;WIDTH:0.453344
G1 F4800.000
G1 X113.456 Y96.432 E0.02465
G1 X113.456 Y97.027 E0.01564
G1 X114.527 Y95.956 E0.03979
G1 X115.123 Y95.956 E0.01564
G1 X113.456 Y97.623 E0.06191
G1 X113.456 Y98.219 E0.01564
G1 X115.719 Y95.956 E0.08403
G1 X116.314 Y95.956 E0.01564
G1 X113.456 Y98.814 E0.10615
G1 X113.456 Y98.835 E0.00055
G1 X113.978 Y98.835 E0.01370
G1 X113.978 Y98.888 E0.00140
G1 X116.910 Y95.956 E0.10890
G1 X117.505 Y95.956 E0.01564
G1 X114.418 Y99.044 E0.11469
G1 X115.013 Y99.044 E0.01564
G1 X118.101 Y95.956 E0.11469
G1 X118.697 Y95.956 E0.01564
G1 X115.609 Y99.044 E0.11469
G1 X116.204 Y99.044 E0.01564
G1 X119.292 Y95.956 E0.11469
G1 X119.888 Y95.956 E0.01564
G1 X116.800 Y99.044 E0.11469
G1 X117.396 Y99.044 E0.01564
G1 X120.483 Y95.956 E0.11469
G1 X121.079 Y95.956 E0.01564
G1 X117.991 Y99.044 E0.11469
G1 X118.587 Y99.044 E0.01564
G1 X121.675 Y95.956 E0.11469
G1 X122.270 Y95.956 E0.01564
G1 X119.182 Y99.044 E0.11469
G1 X119.778 Y99.044 E0.01564
G1 X122.866 Y95.956 E0.11469
G1 X123.461 Y95.956 E0.01564
G1 X120.374 Y99.044 E0.11469
G1 X120.969 Y99.044 E0.01564
