; generated by PrusaSlicer 2.4.0+win64 on 2021-12-27 at 14:58:46 UTC

; 

; external perimeters extrusion width = 0.45mm
; perimeters extrusion width = 0.45mm
; infill extrusion width = 0.45mm
; solid infill extrusion width = 0.45mm
; top infill extrusion width = 0.40mm
; support material extrusion width = 0.35mm
; first layer extrusion width = 0.42mm

M73 P0 R311
M73 Q0 S316
M201 X1000 Y1000 Z200 E5000 ; sets maximum accelerations, mm/sec^2
M203 X200 Y200 Z12 E120 ; sets maximum feedrates, mm/sec
M204 P1250 R1250 T1250 ; sets acceleration (P, T) and retract acceleration (R), mm/sec^2
M205 X8.00 Y8.00 Z0.40 E4.50 ; sets the jerk limits, mm/sec
M205 S0 T0 ; sets the minimum extruding and travel feed rate, mm/sec
M107
;TYPE:Custom
M862.3 P "MK3S" ; printer model check
M862.1 P0.4 ; nozzle diameter check
M115 U3.10.0 ; tell printer latest fw version
G90 ; use absolute coordinates
M83 ; extruder relative mode
M104 S230 ; set extruder temp
M140 S85 ; set bed temp
M190 S85 ; wait for bed temp
M109 S230 ; wait for extruder temp
G28 W ; home all without mesh bed level
G80 ; mesh bed leveling
G1 Y-3.0 F1000.0 ; go outside print area
G92 E0.0
G1 X60.0 E9.0 F1000.0 ; intro line
G1 X100.0 E12.5 F1000.0 ; intro line
G92 E0.0
M221 S95

; Don't change E values below. Excessive value can damage the printer.
M907 E430 ; set extruder motor current
G21 ; set units to millimeters
G90 ; use absolute coordinates
M83 ; use relative distances for extrusion
M900 K0.08 ; Filament gcode LA 1.5
M900 K45 ; Filament gcode LA 1.0
M107
;LAYER_CHANGE
;Z:0.2
;HEIGHT:0.2
;BEFORE_LAYER_CHANGE
G92 E0.0
;0.2


G1 E-1 F2100
G1 Z.2 F10800
;AFTER_LAYER_CHANGE
;0.2
G1 Z.4
G1 X54.651 Y46.498
G1 Z.2
G1 E1 F2100
M204 S1000
;TYPE:Skirt/Brim
;WIDTH:0.42
G1 F1200
G1 X55.861 Y45.179 E.05613
G1 X56.716 Y44.497 E.0343
G1 X57.766 Y43.855 E.03858
G1 X58.518 Y43.509 E.02596
G1 X60.232 Y42.992 E.05613
G1 X61.871 Y42.823 E.05166
G1 X188.262 Y42.827 E3.96292
G1 X189.768 Y42.992 E.04749
G1 X191.482 Y43.509 E.05613
G1 X192.234 Y43.855 E.02596
G1 X193.284 Y44.497 E.03859
G1 X194.139 Y45.179 E.0343
G1 X195.349 Y46.498 E.05613
G1 X196.016 Y47.532 E.03858
G1 X196.389 Y48.272 E.02596
G1 X196.81 Y49.428 E.03859
G1 X197.008 Y50.232 E.02596
G1 X197.173 Y51.738 E.04749
G1 X197.177 Y158.129 E3.33583
G1 X197.008 Y159.768 E.05166
M73 Q0 S315
G1 X196.81 Y160.572 E.02596
G1 X196.389 Y161.728 E.03859
G1 X196.016 Y162.468 E.02596
G1 X195.349 Y163.502 E.03858
G1 X194.139 Y164.821 E.05613
G1 X193.284 Y165.503 E.0343
G1 X192.234 Y166.145 E.03859
G1 X191.482 Y166.491 E.02596
G1 X189.768 Y167.008 E.05613
G1 X188.129 Y167.177 E.05166
G1 X61.871 Y167.177 E3.95874
G1 X60.232 Y167.008 E.05166
G1 X59.428 Y166.809 E.02596
G1 X58.272 Y166.389 E.03858
G1 X57.532 Y166.016 E.02596
G1 X56.498 Y165.349 E.03858
G1 X55.179 Y164.139 E.05613
G1 X54.651 Y163.502 E.02596
G1 X53.984 Y162.468 E.03859
G1 X53.509 Y161.482 E.0343
G1 X52.992 Y159.768 E.05613
G1 X52.823 Y158.129 E.05166
G1 X52.823 Y51.871 E3.33165
G1 X52.992 Y50.232 E.05166
G1 X53.19 Y49.428 E.02596
G1 X53.611 Y48.272 E.03859
G1 X53.984 Y47.532 E.02596
G1 X54.618 Y46.549 E.0367
;WIPE_START
G1 F8640
G1 X55.861 Y45.179 E-.42704
G1 X56.716 Y44.497 E-.25258
G1 X57.715 Y43.886 E-.27038
;WIPE_END
G1 E-.05 F2100
G1 Z.4 F10800
G1 X56.763 Y48.131
G1 Z.2
G1 E1 F2100
G1 F1200
G1 X57.649 Y47.149 E.04147
G1 X59.502 Y45.981 E.06867
G1 X60.659 Y45.628 E.03795
G1 X61.883 Y45.486 E.03862
G1 X188.147 Y45.488 E3.95894
G1 X189.478 Y45.658 E.04205
G1 X190.729 Y46.087 E.04146
G1 X191.87 Y46.763 E.04159
G1 X192.851 Y47.649 E.04144
G1 X194.019 Y49.502 E.06866
G1 X194.372 Y50.659 E.03795
G1 X194.514 Y51.883 E.03862
G1 X194.514 Y158.122 E3.33106
G1 X194.345 Y159.465 E.04244
G1 X193.915 Y160.724 E.0417
G1 X193.237 Y161.869 E.04173
G1 X192.351 Y162.851 E.04146
G1 X190.498 Y164.019 E.06867
G1 X189.341 Y164.372 E.03795
G1 X188.117 Y164.514 E.03862
G1 X61.878 Y164.514 E3.95815
G1 X60.535 Y164.345 E.04244
M73 P0 R310
G1 X59.276 Y163.915 E.0417
G1 X58.131 Y163.237 E.04173
G1 X57.149 Y162.351 E.04147
G1 X55.981 Y160.498 E.06867
G1 X55.628 Y159.341 E.03795
G1 X55.486 Y158.117 E.03862
G1 X55.486 Y51.878 E3.33106
G1 X55.655 Y50.535 E.04244
G1 X56.085 Y49.276 E.0417
G1 X56.732 Y48.182 E.03985
G1 X57.056 Y48.375 F10800
G1 F1200
G1 X57.911 Y47.422 E.04015
G1 X59.636 Y46.335 E.06394
G1 X60.753 Y45.993 E.03662
G1 X61.893 Y45.864 E.036
G1 X188.135 Y45.865 E3.95822
G1 X189.41 Y46.03 E.0403
G1 X190.586 Y46.437 E.03904
G1 X191.66 Y47.077 E.0392
G1 X192.578 Y47.911 E.03888
G1 X193.665 Y49.636 E.06393
G1 X194.007 Y50.753 E.03662
G1 X194.136 Y51.893 E.036
G1 X194.136 Y158.111 E3.33037
G1 X193.982 Y159.362 E.03952
G1 X193.565 Y160.583 E.04046
G1 X192.923 Y161.66 E.03929
G1 X192.089 Y162.578 E.0389
G1 X190.364 Y163.665 E.06394
G1 X189.247 Y164.007 E.03662
G1 X188.107 Y164.136 E.036
G1 X61.889 Y164.136 E3.95746
G1 X60.638 Y163.982 E.03953
M73 Q0 S314
G1 X59.417 Y163.564 E.04046
G1 X58.34 Y162.923 E.03929
G1 X57.422 Y162.089 E.0389
G1 X56.335 Y160.364 E.06394
G1 X55.993 Y159.247 E.03662
G1 X55.864 Y158.107 E.03599
G1 X55.864 Y51.889 E3.33037
G1 X56.018 Y50.638 E.03952
G1 X56.435 Y49.417 E.04046
G1 X57.025 Y48.427 E.03614
G1 X57.347 Y48.617 F10800
G1 F1200
G1 X58.173 Y47.694 E.03882
G1 X59.771 Y46.688 E.05923
G1 X60.813 Y46.366 E.03421
G1 X61.904 Y46.241 E.03443
G1 X188.123 Y46.242 E3.95751
G1 X189.306 Y46.393 E.03738
G1 X190.411 Y46.772 E.03664
G1 X191.421 Y47.369 E.03679
G1 X192.306 Y48.173 E.03747
G1 X193.312 Y49.771 E.05923
G1 X193.634 Y50.814 E.03421
G1 X193.759 Y51.904 E.03443
G1 X193.759 Y158.1 E3.32968
G1 X193.618 Y159.26 E.03665
G1 X193.23 Y160.408 E.03801
G1 X192.631 Y161.421 E.03687
G1 X191.827 Y162.306 E.03749
G1 X190.229 Y163.312 E.05923
G1 X189.187 Y163.634 E.03421
G1 X188.096 Y163.759 E.03443
G1 X61.9 Y163.759 E3.95677
G1 X60.74 Y163.618 E.03665
G1 X59.592 Y163.23 E.03801
G1 X58.579 Y162.631 E.03687
G1 X57.694 Y161.827 E.03749
G1 X56.688 Y160.229 E.05923
G1 X56.366 Y159.186 E.03421
G1 X56.241 Y158.096 E.03443
G1 X56.241 Y51.9 E3.32968
G1 X56.382 Y50.74 E.03665
M73 P0 R309
G1 X56.77 Y49.592 E.03801
G1 X57.316 Y48.669 E.03362
G1 X57.64 Y48.861 F10800
G1 F1200
G1 X57.683 Y48.789 E.00263
G1 X58.434 Y47.968 E.03491
G1 X59.907 Y47.04 E.05458
G1 X60.875 Y46.738 E.03179
G1 X61.915 Y46.618 E.03284
G1 X188.112 Y46.619 E3.9568
G1 X189.202 Y46.756 E.03446
G1 X190.27 Y47.122 E.0354
G1 X191.211 Y47.683 E.03434
G1 X192.032 Y48.434 E.03489
G1 X192.96 Y49.907 E.05458
G1 X193.262 Y50.875 E.03179
G1 X193.382 Y51.915 E.03284
G1 X193.382 Y158.088 E3.32897
G1 X193.246 Y159.194 E.03494
G1 X192.879 Y160.267 E.03556
G1 X192.317 Y161.211 E.03443
G1 X191.566 Y162.032 E.0349
G1 X190.093 Y162.96 E.05458
G1 X189.125 Y163.262 E.03179
G1 X188.085 Y163.382 E.03284
G1 X61.912 Y163.382 E3.95606
G1 X60.806 Y163.246 E.03494
G1 X59.733 Y162.879 E.03556
G1 X58.789 Y162.317 E.03443
G1 X57.968 Y161.566 E.0349
G1 X57.04 Y160.093 E.05459
G1 X56.738 Y159.125 E.03179
G1 X56.618 Y158.085 E.03284
G1 X56.618 Y51.912 E3.32897
G1 X56.754 Y50.806 E.03494
G1 X57.12 Y49.733 E.03556
G1 X57.609 Y48.913 E.02992
G1 X57.933 Y49.106 F10800
G1 F1200
G1 X57.996 Y48.999 E.00389
G1 X58.694 Y48.242 E.03229
G1 X60.042 Y47.393 E.04996
G1 X60.97 Y47.104 E.03046
G1 X61.926 Y46.995 E.03017
G1 X188.101 Y46.996 E3.95612
G1 X189.1 Y47.119 E.03158
M73 Q0 S313
G1 X190.095 Y47.456 E.03292
G1 X191.001 Y47.997 E.03309
G1 X191.758 Y48.694 E.03228
G1 X192.607 Y50.043 E.04996
G1 X192.896 Y50.97 E.03046
G1 X193.005 Y51.926 E.03017
G1 X193.005 Y158.077 E3.32829
G1 X192.883 Y159.092 E.03207
G1 X192.545 Y160.092 E.03307
G1 X192.004 Y161.001 E.03317
G1 X191.306 Y161.758 E.03229
G1 X189.957 Y162.607 E.04996
G1 X189.03 Y162.896 E.03046
G1 X188.074 Y163.005 E.03017
G1 X61.923 Y163.005 E3.95538
G1 X60.908 Y162.883 E.03207
G1 X59.908 Y162.545 E.03307
G1 X58.999 Y162.004 E.03317
G1 X58.242 Y161.306 E.03229
G1 X57.393 Y159.957 E.04996
G1 X57.104 Y159.03 E.03046
G1 X56.995 Y158.074 E.03017
G1 X56.995 Y51.923 E3.32829
G1 X57.117 Y50.908 E.03207
G1 X57.455 Y49.908 E.03307
G1 X57.902 Y49.157 E.0274
G1 X58.225 Y49.351 F10800
G1 F1200
G1 X58.309 Y49.211 E.00513
G1 X58.953 Y48.516 E.0297
G1 X60.179 Y47.745 E.04541
G1 X61.031 Y47.476 E.02802
G1 X61.937 Y47.372 E.02858
G1 X188.089 Y47.373 E3.9554
G1 X189.034 Y47.491 E.02986
G1 X189.953 Y47.806 E.03046
G1 X190.789 Y48.309 E.03061
G1 X191.484 Y48.953 E.0297
G1 X192.255 Y50.179 E.04541
G1 X192.524 Y51.031 E.02802
G1 X192.628 Y51.937 E.02858
G1 X192.628 Y158.065 E3.32758
G1 X192.511 Y159.027 E.03037
M73 P0 R308
G1 X192.195 Y159.95 E.0306
G1 X191.691 Y160.789 E.03069
G1 X191.047 Y161.484 E.0297
G1 X189.821 Y162.255 E.04541
G1 X188.969 Y162.524 E.02801
G1 X188.063 Y162.628 E.02858
G1 X61.935 Y162.628 E3.95467
G1 X60.973 Y162.511 E.03037
G1 X60.05 Y162.195 E.0306
G1 X59.211 Y161.691 E.03069
G1 X58.516 Y161.047 E.0297
G1 X57.745 Y159.821 E.04541
G1 X57.476 Y158.969 E.02801
G1 X57.372 Y158.063 E.02858
G1 X57.372 Y51.935 E3.32758
G1 X57.489 Y50.973 E.03037
G1 X57.805 Y50.05 E.0306
G1 X58.194 Y49.403 E.02367
G1 X58.515 Y49.598 F10800
G1 F1200
G1 X58.621 Y49.424 E.00638
G1 X59.212 Y48.792 E.02713
G1 X60.316 Y48.097 E.04089
G1 X61.127 Y47.841 E.02668
G1 X61.947 Y47.749 E.02587
G1 X188.077 Y47.75 E3.9547
G1 X188.966 Y47.862 E.02812
M73 P1 R308
M73 Q1 S313
G1 X189.809 Y48.155 E.02798
G1 X190.576 Y48.621 E.02813
G1 X191.208 Y49.212 E.02712
G1 X191.903 Y50.316 E.04089
G1 X192.159 Y51.127 E.02668
G1 X192.251 Y51.947 E.02587
G1 X192.251 Y158.054 E3.32689
G1 X192.139 Y158.96 E.02864
G1 X191.846 Y159.807 E.0281
G1 X191.379 Y160.576 E.0282
G1 X190.788 Y161.208 E.02713
G1 X189.684 Y161.903 E.04089
G1 X188.873 Y162.159 E.02668
G1 X188.053 Y162.251 E.02587
G1 X61.946 Y162.251 E3.95398
G1 X61.04 Y162.139 E.02864
M73 Q1 S312
G1 X60.193 Y161.846 E.0281
G1 X59.424 Y161.379 E.0282
G1 X58.792 Y160.788 E.02713
G1 X58.097 Y159.684 E.04089
G1 X57.841 Y158.873 E.02668
G1 X57.749 Y158.053 E.02587
G1 X57.749 Y51.946 E3.32689
G1 X57.861 Y51.04 E.02864
G1 X58.154 Y50.193 E.0281
G1 X58.484 Y49.649 E.01994
G1 X58.805 Y49.842 F10800
G1 F1200
G1 X58.91 Y49.667 E.00641
G1 X59.471 Y49.067 E.02573
G1 X60.454 Y48.449 E.0364
G1 X61.189 Y48.214 E.02421
G1 X61.958 Y48.126 E.02427
G1 X188.065 Y48.127 E3.95401
G1 X188.863 Y48.226 E.02521
G1 X189.633 Y48.489 E.0255
G1 X190.334 Y48.91 E.02563
G1 X190.933 Y49.471 E.02573
G1 X191.551 Y50.454 E.0364
G1 X191.786 Y51.189 E.02421
G1 X191.874 Y51.958 E.02427
G1 X191.874 Y158.043 E3.32621
G1 X191.776 Y158.858 E.02575
G1 X191.512 Y159.631 E.02561
G1 X191.09 Y160.333 E.0257
G1 X190.529 Y160.933 E.02573
G1 X189.546 Y161.551 E.0364
G1 X188.811 Y161.786 E.02421
G1 X188.042 Y161.874 E.02427
G1 X61.957 Y161.874 E3.9533
G1 X61.142 Y161.776 E.02575
G1 X60.369 Y161.512 E.02561
G1 X59.667 Y161.09 E.0257
G1 X59.067 Y160.529 E.02573
G1 X58.449 Y159.546 E.0364
G1 X58.214 Y158.811 E.02421
G1 X58.126 Y158.042 E.02427
G1 X58.126 Y51.957 E3.32621
G1 X58.224 Y51.142 E.02575
M73 P1 R307
G1 X58.488 Y50.369 E.02561
G1 X58.774 Y49.893 E.0174
G1 X59.095 Y50.088 F10800
G1 F1200
G1 X59.222 Y49.88 E.00764
G1 X59.728 Y49.344 E.02313
G1 X60.593 Y48.8 E.03201
G1 X61.251 Y48.586 E.02172
G1 X61.969 Y48.503 E.02265
G1 X188.054 Y48.504 E3.95329
G1 X188.796 Y48.597 E.02347
G1 X189.489 Y48.838 E.02301
G1 X190.12 Y49.222 E.02314
G1 X190.656 Y49.728 E.02313
G1 X191.2 Y50.593 E.03202
G1 X191.414 Y51.251 E.02172
G1 X191.497 Y51.969 E.02265
G1 X191.497 Y158.031 E3.3255
G1 X191.404 Y158.792 E.02403
G1 X191.163 Y159.488 E.0231
G1 X190.778 Y160.12 E.0232
G1 X190.272 Y160.656 E.02313
G1 X189.407 Y161.2 E.03202
G1 X188.749 Y161.414 E.02172
G1 X188.031 Y161.497 E.02265
G1 X61.969 Y161.497 E3.95259
G1 X61.208 Y161.404 E.02403
G1 X60.512 Y161.163 E.0231
G1 X59.88 Y160.778 E.0232
G1 X59.344 Y160.272 E.02313
G1 X58.8 Y159.407 E.03202
G1 X58.586 Y158.749 E.02172
G1 X58.503 Y158.031 E.02265
G1 X58.503 Y51.969 E3.3255
G1 X58.596 Y51.208 E.02403
G1 X58.837 Y50.512 E.0231
G1 X59.064 Y50.14 E.01368
G1 X59.386 Y50.335 F10800
G1 F1200
G1 X59.533 Y50.094 E.00887
G1 X59.984 Y49.621 E.02049
G1 X60.731 Y49.152 E.02766
G1 X61.349 Y48.951 E.02038
G1 X61.979 Y48.88 E.01987
G1 X188.042 Y48.881 E3.95262
G1 X188.694 Y48.961 E.02058
M73 Q1 S311
G1 X189.312 Y49.171 E.02046
G1 X189.906 Y49.533 E.02182
G1 X190.379 Y49.984 E.02049
G1 X190.848 Y50.731 E.02766
G1 X191.049 Y51.35 E.02038
G1 X191.12 Y51.979 E.01987
G1 X191.12 Y158.02 E3.32484
G1 X191.04 Y158.69 E.02114
G1 X190.829 Y159.31 E.02054
G1 X190.467 Y159.906 E.02188
G1 X190.016 Y160.379 E.02049
G1 X189.269 Y160.848 E.02766
G1 X188.651 Y161.049 E.02038
G1 X188.021 Y161.12 E.01987
G1 X61.98 Y161.12 E3.95193
G1 X61.31 Y161.04 E.02114
G1 X60.69 Y160.829 E.02054
G1 X60.094 Y160.467 E.02188
G1 X59.621 Y160.016 E.02049
G1 X59.152 Y159.269 E.02767
G1 X58.951 Y158.65 E.02038
G1 X58.88 Y158.021 E.01987
G1 X58.88 Y51.98 E3.32484
G1 X58.96 Y51.31 E.02114
G1 X59.171 Y50.69 E.02054
G1 X59.355 Y50.387 E.01114
G1 X59.674 Y50.583 F10800
G1 F1200
G1 X59.843 Y50.31 E.01007
G1 X60.239 Y49.9 E.01788
G1 X60.872 Y49.502 E.02344
G1 X61.412 Y49.323 E.01785
G1 X61.99 Y49.257 E.01823
G1 X188.031 Y49.258 E3.95191
G1 X188.627 Y49.332 E.01884
G1 X189.167 Y49.52 E.01793
G1 X189.69 Y49.843 E.01926
G1 X190.1 Y50.239 E.01788
G1 X190.498 Y50.872 E.02344
G1 X190.677 Y51.412 E.01785
G1 X190.743 Y51.99 E.01823
M73 P1 R306
G1 X190.743 Y158.01 E3.32418
G1 X190.677 Y158.588 E.01823
G1 X190.479 Y159.168 E.01921
G1 X190.157 Y159.69 E.01924
G1 X189.761 Y160.1 E.01788
G1 X189.128 Y160.498 E.02344
G1 X188.588 Y160.677 E.01785
G1 X188.01 Y160.743 E.01823
G1 X61.99 Y160.743 E3.95126
G1 X61.412 Y160.677 E.01823
G1 X60.832 Y160.479 E.01921
G1 X60.31 Y160.157 E.01924
G1 X59.9 Y159.761 E.01788
G1 X59.502 Y159.128 E.02344
G1 X59.323 Y158.588 E.01785
G1 X59.257 Y158.01 E.01823
G1 X59.257 Y51.99 E3.32418
G1 X59.323 Y51.412 E.01823
G1 X59.521 Y50.832 E.01921
G1 X59.643 Y50.634 E.00729
G1 X59.96 Y50.833 F10800
G1 F1200
G1 X60.151 Y50.528 E.01127
G1 X60.492 Y50.18 E.0153
G1 X61.015 Y49.852 E.01934
G1 X61.476 Y49.695 E.01529
G1 X62.001 Y49.634 E.01657
G1 X188.02 Y49.636 E3.95123
G1 X188.523 Y49.695 E.01588
G1 X189.022 Y49.869 E.01659
G1 X189.472 Y50.151 E.01662
G1 X189.82 Y50.492 E.0153
G1 X190.148 Y51.015 E.01934
G1 X190.305 Y51.476 E.01529
G1 X190.366 Y52.001 E.01657
G1 X190.366 Y157.999 E3.32348
G1 X190.305 Y158.523 E.01654
G1 X190.131 Y159.022 E.01659
G1 X189.849 Y159.472 E.01662
G1 X189.508 Y159.82 E.0153
G1 X188.985 Y160.148 E.01934
G1 X188.524 Y160.305 E.01529
G1 X187.999 Y160.366 E.01657
G1 X62.001 Y160.366 E3.95057
M73 Q1 S310
G1 X61.477 Y160.305 E.01654
G1 X60.978 Y160.131 E.01659
G1 X60.528 Y159.849 E.01662
G1 X60.18 Y159.508 E.0153
G1 X59.852 Y158.985 E.01934
G1 X59.695 Y158.524 E.01529
G1 X59.634 Y157.999 E.01657
G1 X59.634 Y52.001 E3.32348
G1 X59.695 Y51.477 E.01654
G1 X59.869 Y50.978 E.01659
G1 X59.928 Y50.884 E.00347
G1 X60.248 Y51.081 F10800
G1 F1200
G1 X60.435 Y50.777 E.01119
G1 X60.746 Y50.46 E.01392
G1 X61.157 Y50.202 E.01521
G1 X61.577 Y50.059 E.01394
G1 X62.011 Y50.011 E.01367
G1 X188.01 Y50.013 E3.95061
G1 X188.422 Y50.059 E.01301
G1 X188.844 Y50.202 E.01397
G1 X189.223 Y50.435 E.01394
G1 X189.54 Y50.746 E.01392
G1 X189.798 Y51.157 E.01521
G1 X189.941 Y51.578 E.01394
G1 X189.989 Y52.011 E.01367
G1 X189.989 Y157.989 E3.32287
G1 X189.941 Y158.422 E.01367
G1 X189.798 Y158.844 E.01397
G1 X189.565 Y159.223 E.01395
G1 X189.254 Y159.54 E.01392
G1 X188.843 Y159.798 E.01521
G1 X188.422 Y159.941 E.01394
G1 X187.989 Y159.989 E.01367
G1 X62.011 Y159.989 E3.94996
G1 X61.577 Y159.941 E.01367
G1 X61.156 Y159.798 E.01397
G1 X60.777 Y159.565 E.01395
G1 X60.46 Y159.254 E.01392
G1 X60.202 Y158.843 E.01521
G1 X60.059 Y158.422 E.01394
G1 X60.011 Y157.989 E.01367
G1 X60.011 Y52.011 E3.32287
G1 X60.059 Y51.578 E.01367
M73 P1 R305
G1 X60.217 Y51.132 E.01482
; printing object Box v12.stl id:0 copy 0
;WIPE_START
G1 F8640
G1 X60.435 Y50.777 E-.09626
G1 X60.746 Y50.46 E-.10249
G1 X61.157 Y50.202 E-.11198
G1 X61.577 Y50.059 E-.10264
G1 X62.011 Y50.011 E-.10069
G1 X63.899 Y50.011 E-.43595
;WIPE_END
G1 E-.05 F2100
G1 Z.4 F10800
G1 X64.974 Y52.021
G1 Z.2
G1 E1 F2100
;TYPE:Support material
G1 F1200
